<?xml version="1.0" encoding="UTF-8"?>
<map version="1.10" tiledversion="1.11.2" orientation="orthogonal" renderorder="right-down" width="15" height="15" tilewidth="32" tileheight="32" infinite="0" nextlayerid="3" nextobjectid="7">
 <tileset firstgid="1" source="../map_test/nature.tsx"/>
 <layer id="1" name="Calque de Tuiles 1" width="15" height="15">
  <data encoding="csv">
44,44,44,44,44,44,44,44,44,44,44,44,44,44,44,
44,43,43,43,43,43,43,43,43,43,43,43,43,43,44,
44,43,43,43,43,43,43,43,43,43,43,43,43,43,44,
44,43,43,43,43,43,43,43,43,43,43,43,43,43,44,
44,43,43,43,43,43,43,43,43,43,43,43,43,43,44,
44,43,43,43,43,43,43,43,43,43,43,43,43,43,44,
44,43,43,43,43,43,43,43,43,43,43,43,43,43,44,
44,43,43,43,43,43,43,43,43,43,43,43,43,43,44,
44,43,43,43,43,43,43,43,43,43,43,43,43,43,44,
44,43,43,43,43,43,43,43,43,43,43,43,43,43,44,
44,43,43,43,43,43,43,43,43,43,43,43,43,43,44,
44,43,43,43,43,43,43,43,43,43,43,43,43,43,44,
44,43,43,43,43,43,43,43,43,43,43,43,43,43,44,
44,43,43,43,43,43,43,43,43,43,43,43,43,43,44,
44,44,44,44,44,44,44,44,44,44,44,44,44,44,44
</data>
 </layer>
 <objectgroup id="2" name="objects">
  <object id="1" type="collision" x="0.593032" y="0" width="479.763" height="33.2098"/>
  <object id="2" type="collision" x="0.593032" y="34.3958" width="32.0237" height="444.774"/>
  <object id="3" type="collision" x="448.925" y="34.3958" width="32.0237" height="444.181"/>
  <object id="4" type="collision" x="27.8725" y="445.96" width="425.204" height="35.5819"/>
  <object id="5" name="map_test" type="portal" x="21.3491" y="94.8851" width="21.9422" height="49.8147"/>
  <object id="6" name="map_test" x="132.839" y="110.897">
   <point/>
  </object>
 </objectgroup>
</map>
