<?xml version="1.0" encoding="UTF-8"?>
<map version="1.10" tiledversion="1.11.2" orientation="orthogonal" renderorder="right-down" width="100" height="100" tilewidth="32" tileheight="32" infinite="0" nextlayerid="5" nextobjectid="202">
 <tileset firstgid="1" source="WumXon Infiltration.tsx"/>
 <tileset firstgid="20001" source="nature.tsx"/>
 <tileset firstgid="20181" source="tileset_51.tsx"/>
 <tileset firstgid="20693" source="../map_test/nature.tsx"/>
 <layer id="1" name="floor" width="100" height="100">
  <data encoding="csv">
10001,10002,10003,10004,10005,10006,10007,10008,10009,10010,10011,10012,10013,10014,10015,10016,10017,10018,10019,10020,10021,10022,10023,10024,10025,10026,10027,10028,10029,10030,10031,10032,10033,10034,10035,10036,10037,10038,10039,10040,10041,10042,10043,10044,10045,20390,20391,20390,20391,20390,10051,10052,10053,10054,10055,10056,10057,10058,10059,10060,10061,10062,10063,10064,10065,10066,10067,10068,10069,10070,10071,10072,10073,10074,10075,10076,10077,10078,10079,10080,10081,10082,10083,10084,10085,10086,10087,10088,10089,10090,10091,10092,10093,10094,10095,10096,10097,10098,10099,10100,
10101,10102,10103,10104,10105,10106,10107,10108,10109,10110,10111,10112,10113,10114,10115,10116,10117,10118,10119,10120,10121,10122,10123,10124,10125,10126,10127,10128,10129,10130,10131,10132,10133,10134,10135,10136,10137,10138,10139,10140,10141,10142,10143,10144,10145,20422,20423,20422,20423,20422,10151,10152,10153,10154,10155,10156,10157,10158,10159,10160,10161,10162,10163,10164,10165,10166,10167,10168,10169,10170,10171,10172,10173,10174,10175,10176,10177,10178,10179,10180,10181,10182,10183,10184,10185,10186,10187,10188,10189,10190,10191,10192,10193,10194,10195,10196,10197,10198,10199,10200,
10201,20087,20087,20087,20088,20042,20042,20042,20042,20042,20042,20042,20042,20042,20042,20042,20042,20042,20042,20042,20042,20042,20042,20042,20042,20042,20042,20042,20042,20042,20042,20042,20042,20042,20042,20042,20042,20042,20042,20042,20042,20042,20042,20042,20042,2147503741,20092,20092,20092,20093,20042,20042,20042,20042,20042,20042,20042,20042,20042,20042,20042,20042,20042,20042,20042,20042,20042,20042,20042,20042,20042,20042,20042,20042,20042,20042,20042,20042,20042,20042,20042,20042,20042,20042,20042,20042,20042,20042,20042,20042,20042,20042,20042,20042,20042,20042,20042,20042,20042,10300,
20082,20082,20082,20082,20088,10306,10307,10308,20042,20042,20042,20042,20042,20042,20042,20042,20042,20042,20042,20042,20042,20042,20042,20042,20042,20042,20042,20042,20042,20042,20042,20042,20042,20042,20042,20042,20042,20042,20042,20042,20042,20042,20042,20042,20042,2147503741,20092,20092,20092,20093,10351,10352,10353,10354,10355,10356,10357,10358,10359,10360,10361,10362,10363,10364,10365,10366,10367,10368,10369,10370,10371,10372,10373,10374,10375,10376,10377,10378,10379,10380,10381,10382,10383,10384,10385,10386,10387,10388,10389,10390,10391,10392,10393,20042,20042,20042,20042,20042,20042,10400,
20082,20082,20082,20082,20088,10406,10407,10408,20042,20042,20042,20042,20042,20042,20042,20042,20042,20042,20042,20042,20042,20042,20042,20042,20042,20042,20042,20042,20042,20042,20042,20042,20042,20042,20042,20042,20042,20042,20042,20042,20042,20042,20042,20042,20042,2147503741,20092,20092,20092,20093,10451,10452,10453,10454,10455,10456,10457,10458,10459,10460,10461,10462,10463,10464,10465,10466,10467,10468,10469,10470,10471,10472,10473,10474,10475,10476,10477,10478,10479,10480,10481,10482,10483,10484,10485,10486,10487,10488,10489,10490,10491,10492,10493,10494,10495,10496,10497,10498,10499,10500,
20082,20082,20082,20082,20088,10506,10507,10508,20042,20042,20042,20042,20042,20042,20042,20042,20042,20042,20042,20042,20042,20042,20042,20042,20042,20042,20042,20042,20042,20042,20042,20042,20042,20042,20042,20042,20042,20042,20042,20042,20042,20042,20042,20042,20042,2147503741,20092,20092,20092,20093,10551,10552,10553,10554,10555,10556,10557,10558,10559,10560,10561,10562,10563,10564,10565,10566,10567,10568,10569,10570,10571,10572,10573,10574,10575,10576,10577,10578,10579,10580,10581,10582,10583,10584,10585,10586,10587,10588,10589,10590,10591,10592,10593,10594,10595,10596,10597,10598,10599,10600,
20082,20082,20082,20082,20088,10606,10607,10608,20042,20042,20042,20042,20042,20042,20042,20042,20042,20042,20042,20042,20042,20042,20042,20042,20042,20042,20042,20042,20042,20042,20042,20042,20042,20042,20042,20042,20042,20042,20042,20042,20042,20042,20042,20042,20042,2147503741,20092,20092,20092,20093,10651,10652,10653,10654,10655,10656,10657,10658,10659,10660,10661,10662,10663,10664,10665,10666,10667,10668,10669,10670,10671,10672,10673,10674,10675,10676,10677,10678,10679,10680,10681,10682,10683,10684,10685,10686,10687,10688,10689,10690,10691,10692,10693,10694,10695,10696,10697,10698,10699,10700,
20082,20082,20082,20082,20088,10706,10707,10708,10709,10710,20066,20067,20067,20067,20067,20067,20067,20067,20067,20067,20067,20067,20067,20067,20067,20067,20067,20067,20067,20067,20067,20067,20067,20067,20067,20067,20067,20067,20067,20067,20067,20067,20067,20067,20067,2147503729,20092,20092,20092,20081,10751,10752,10753,10754,10755,10756,10757,10758,10759,10760,10761,10762,10763,10764,10765,10766,10767,10768,10769,10770,10771,10772,10773,10774,10775,10776,10777,10778,10779,10780,10781,10782,10783,10784,10785,10786,10787,10788,10789,10790,10791,10792,10793,10794,10795,10796,10797,10798,10799,10800,
20082,20082,20082,20082,20088,10806,10807,10808,10809,10810,20086,20087,20087,20087,20087,20087,20087,20087,20087,20087,20087,20087,20087,20087,20087,20087,20087,20087,20087,20087,20087,20087,20087,20087,20087,20087,20087,20087,20087,20087,20087,20087,20087,20087,20087,2147503729,20092,20092,20092,20081,20082,20082,20082,20082,20082,20082,20082,20082,20082,20082,20082,20082,20082,20082,20082,20082,20082,20082,20082,20082,20082,20082,20082,20082,20082,20082,20082,20082,20082,20082,20082,20082,20082,20082,20082,20082,20082,20082,20082,20082,20082,20082,20082,20082,20082,20082,20082,20082,20082,20082,
20082,20082,20041,20082,20088,10906,10907,10908,10909,10910,20082,20082,20082,20082,20082,20082,20082,20082,20087,20087,20087,20087,20087,20087,20087,20087,20087,20087,20087,20087,20087,20082,20082,20082,20082,20082,20087,20082,20082,20082,20082,20082,20082,20082,20102,2147503749,20092,20092,20092,20101,20102,20082,20082,20082,20082,20082,20082,20082,20082,20082,20082,20082,20082,20082,20082,20082,20082,20082,20082,20082,20082,20082,20082,20082,20082,20082,20082,20082,20082,20082,20082,20082,20082,20082,20082,20082,20082,20082,20082,20082,20082,20082,20082,20082,20082,20082,20082,20082,20082,20082,
20082,20082,20082,20082,20088,11006,11007,11008,11009,11010,20082,20082,20082,20082,20082,20043,20043,20043,20043,20043,20043,20043,20043,20043,20043,20043,20043,20043,20043,20043,20043,20043,20043,20043,20043,20043,20043,20043,20043,20043,20043,20043,20043,20043,20043,20043,20043,20043,20043,20043,20043,20043,20043,20043,20043,20043,20043,20043,20043,20043,20043,20043,20043,20043,20043,20043,20043,20043,20043,20043,20043,20043,20043,20043,20043,20043,20043,20043,20043,20043,20043,20043,20043,20043,20043,20043,20043,20082,20082,20082,20082,20082,20082,20082,20082,20082,20082,20082,20082,20082,
20082,20082,20082,20082,20088,11106,11107,11108,11109,11110,20041,20041,20082,20082,20082,20043,20043,20043,20043,20043,20043,20043,20043,20043,20043,20043,20043,20043,20043,20043,20043,20043,20043,20043,20043,20043,20043,20043,20043,20043,20043,20043,20043,20043,20043,20043,20043,20043,20043,20043,20043,20043,20043,20043,20043,20043,20043,20043,20043,20043,20043,20043,20043,20043,20043,20043,20043,20043,20043,20043,20043,20043,20043,20043,20043,20043,20043,20043,20043,20043,20043,20043,20043,20043,20043,20043,20043,20082,20082,20082,20082,20082,20082,20082,20082,20082,20082,20082,20082,20082,
20082,20082,20082,20082,20088,11206,11207,11208,11209,11210,20082,20082,20082,20082,20082,20043,20043,20043,20043,20043,20043,20043,20043,20043,20043,20043,20043,20043,20043,20043,20043,20043,20043,20043,20043,20043,20043,20043,20043,20043,20043,20043,20043,20043,20043,20043,20043,20043,20043,20043,20043,20043,20043,20043,20043,20043,20043,20043,20043,20043,20043,20043,20043,20043,20043,20043,20043,20043,20043,20043,20043,20043,20043,20043,20043,20043,20043,20043,20043,20043,20043,20043,20043,20043,20043,20043,20043,20082,20082,20082,20082,20082,20082,20082,20082,20082,20082,20082,20082,20082,
20082,20082,20082,20082,20088,11306,11307,11308,11309,11310,20082,20082,20082,20082,20082,20043,20043,20043,20043,20082,20082,20082,20082,20082,20082,20082,20082,20092,20092,20092,20092,20092,20092,20092,20092,20092,20092,20092,20092,20092,20092,20092,20092,20092,20092,20092,20092,20092,20092,20092,20092,20092,20092,20092,20092,20092,20092,20092,20092,20092,20092,20092,20092,20092,20092,20092,20092,20092,20092,20092,20092,20092,20092,20092,20390,20092,20092,20092,20092,20092,20092,20422,20092,20092,20043,20043,20043,20082,20082,20082,20082,20082,20082,20082,20082,20082,20082,20082,20082,20082,
20082,20082,20082,20082,20088,11406,11407,11408,11409,11410,20082,20082,20082,20082,20082,20043,20043,20043,20043,20082,20082,20082,20082,20082,20082,20082,20082,20087,11429,11430,11431,11432,11433,11434,11435,11436,11437,11438,11439,11440,11441,11442,11443,11444,11445,11446,11447,11448,11449,11450,11451,11452,11453,11454,11455,11456,11457,11458,11459,11460,11461,11462,11463,11464,11465,11466,11467,11468,11469,11470,11471,11472,11473,11474,20422,11476,11477,11478,11479,11480,11481,20422,20092,20092,20043,20043,20043,20082,20082,20082,20082,20082,20082,20082,20082,20082,20082,20082,20082,20082,
20082,20082,20082,20082,20088,11506,11507,11508,11509,11510,20082,20082,20082,20082,20082,20043,20043,20043,20043,20082,20082,20082,20082,20082,20082,20082,20082,20087,20451,20451,20451,20451,20329,20330,20331,20332,20333,11538,11539,11540,11541,11542,11543,11544,11545,11546,11547,11548,11549,11550,11551,11552,11553,20370,20371,20372,11557,20451,20370,20371,20372,20370,20371,20372,11565,11566,20451,20394,11569,11570,11571,20394,20394,20394,20390,20370,20371,20372,20370,20371,20372,20390,20092,20092,20043,20043,20043,20082,20082,20082,20082,20082,20082,20082,20082,20082,20082,20082,20082,20082,
20082,20082,20082,20082,20088,11606,11607,11608,11609,11610,20082,20082,20082,20082,20082,20043,20043,20043,20043,20082,20082,20082,20082,20082,20082,20082,20082,20087,20451,20451,20451,20451,11633,11634,11635,20451,20451,20451,20451,20451,20451,11642,11643,11644,11645,11646,11647,11648,11649,11650,11651,11652,11653,20402,20403,20404,11657,20451,20402,20403,20404,20402,20403,20404,11665,11666,20451,20394,11669,11670,11671,20394,20394,20394,20422,20402,20403,20404,20402,20403,20404,20422,20092,20043,20043,20043,20043,20082,20082,20082,20082,20082,20082,20082,20082,20082,20082,20082,20082,20082,
20082,20082,20041,20041,20088,11706,11707,11708,11709,11710,20082,20082,20082,20041,20082,20043,20043,20043,20043,20082,20082,20082,20082,20082,20082,20082,20082,20087,20451,20451,20451,20451,11733,11734,11735,20451,20451,20451,20451,20451,20451,11742,11743,11744,11745,11746,11747,11748,11749,11750,11751,11752,11753,20434,20435,20436,11757,20451,20434,20435,20436,20434,20435,20436,11765,11766,20451,20394,11769,11770,11771,20394,20394,20394,20390,20434,20435,20436,20434,20435,20436,20390,20092,20043,20043,20043,20043,20082,20082,20082,20082,20082,20082,20082,20082,20082,20082,20082,20082,20082,
20082,20082,20041,20041,20088,11806,11807,11808,11809,11810,20082,20082,20082,20041,20082,20043,20043,20043,20043,20082,20082,20082,20082,20082,20082,20082,20082,20087,20451,20451,20451,20451,11833,11834,11835,20451,20451,20451,20451,20451,20451,11842,11843,11844,11845,11846,20451,20451,20451,11850,11851,11852,11853,11854,11855,11856,11857,20451,11859,11860,11861,11862,11863,11864,11865,11866,20451,20394,11869,11870,11871,20394,20394,20394,20422,20183,20183,20183,20183,20183,20183,20422,20092,20043,20043,20043,20043,20082,20082,20082,20082,20082,20082,20082,20082,20082,20082,20082,20082,20082,
20082,20082,20082,20082,20088,11906,11907,11908,11909,11910,20082,20082,20082,20082,20082,20043,20043,20043,20043,20082,20082,20082,20082,20082,20082,20082,20082,20087,20451,20451,20451,20451,11933,11934,11935,20451,20451,20451,20451,20451,20451,11942,11943,11944,11945,11946,20451,20451,20451,11950,11951,11952,11953,11954,11955,11956,11957,20451,11959,11960,11961,11962,11963,11964,11965,11966,20451,20394,11969,11970,11971,20394,20394,20394,20390,20183,20183,20183,20183,20183,20183,20390,20092,20043,20043,20043,20043,20082,20082,20082,20082,20082,20082,20082,20082,20082,20082,20082,20082,20082,
20082,20082,20082,20082,20088,12006,12007,12008,12009,12010,20082,20082,20082,20082,20082,20043,20043,20043,20043,20082,20082,20082,20082,20082,20082,20082,20082,20087,20451,20451,20451,20451,12033,12034,12035,20451,20451,20451,20451,20451,20451,12042,12043,12044,12045,12046,20451,20451,20451,12050,12051,12052,12053,12054,12055,12056,12057,20451,12059,12060,12061,12062,12063,12064,12065,12066,20451,20394,12069,12070,12071,20394,20394,20394,20422,20183,20183,20183,20183,20183,20183,20422,20092,20043,20043,20043,20043,20082,20082,20082,20082,20082,20082,20082,20082,20082,20082,20082,20082,20082,
20082,20082,20082,20082,20088,12106,12107,12108,12109,12110,20082,20082,20082,20082,20082,20043,20043,20043,20043,20082,20082,20082,20082,20082,20082,20082,20082,20087,20451,20451,20451,20451,12133,12134,12135,20451,20451,20451,20451,20451,20451,12142,12143,12144,12145,12146,20451,20451,20451,12150,12151,12152,12153,12154,12155,12156,12157,20451,12159,12160,12161,12162,12163,12164,12165,12166,20451,20394,12169,12170,12171,20394,20394,20394,20390,20183,20183,20183,20183,20183,20183,20390,20092,20043,20043,20043,20043,20082,20082,20082,20082,20082,20082,20082,20082,20082,20082,20082,20082,20082,
20082,20082,20082,20082,20088,12206,12207,12208,12209,12210,20082,20082,20082,20082,20082,20043,20043,20043,20043,20082,20082,20082,20082,20082,20082,20082,20082,20087,20451,20451,20451,20451,12233,12234,12235,20451,20451,20451,20451,20451,20451,12242,20451,20451,20451,20451,20451,20451,20451,20451,20451,20451,20451,20451,12255,12256,12257,20451,12259,12260,12261,12262,12263,12264,12265,12266,20451,20394,12269,12270,12271,20394,20394,20394,20422,20183,20183,20183,20183,20183,20183,20422,20092,20043,20043,20043,20043,20082,20082,20082,20082,20082,20082,20082,20082,20082,20082,20082,20082,20082,
20082,20082,20082,20082,20088,12306,12307,12308,12309,12310,20082,20041,20082,20082,20082,20043,20043,20043,20043,20082,20082,20082,20082,20082,20082,20082,20082,20087,20451,20451,20451,20451,12333,20451,20451,20451,20451,20451,20451,20451,20451,12342,20451,20451,20451,20451,20451,20451,20451,20451,20451,20451,20451,20451,12355,12356,12357,20451,20451,20451,20451,20451,20451,20451,20451,12366,20451,20394,12369,12370,12371,20394,20394,20394,20390,12376,12377,12378,12379,12380,12381,20390,20092,20043,20043,20043,20043,20082,20082,20082,20082,20082,20082,20082,20082,20082,20082,20082,20082,20082,
20082,20082,20082,20082,20088,12406,12407,12408,12409,12410,20082,20082,20082,20082,20082,20043,20043,20043,20043,20082,20082,20082,20082,20082,20082,20082,20082,20087,20451,20451,20451,20451,12433,20451,20451,20451,20451,20451,20451,20451,20451,12442,20451,20451,20451,20451,20451,20451,20451,20451,20451,20451,20451,20451,12455,12456,12457,20451,20451,20451,20451,20451,20451,20451,20451,12466,20451,20394,12469,12470,12471,20394,20394,20394,20422,12476,12477,12478,12479,12480,12481,20422,20092,20043,20043,20043,20043,20082,20082,20082,20082,20082,20082,20082,20082,20082,20082,20082,20082,20082,
20082,20082,20082,20082,20088,12506,12507,12508,12509,12510,20082,20082,20082,20082,20082,20043,20043,20043,20043,20082,20082,20082,20082,20082,20082,20082,20082,20087,20451,20451,20451,20451,12533,20451,20451,20451,20451,20451,20451,20451,20451,20451,20451,20451,20451,20451,20451,20451,20451,20451,20451,20451,20451,20451,12555,12556,12557,20451,20451,20451,20451,20451,20451,20451,20451,12566,20451,20394,12569,12570,12571,20394,20394,20394,20390,12576,12577,12578,12579,12580,12581,20390,20092,20043,20043,20043,20043,20082,20082,20082,20082,20082,20082,20082,20082,20082,20082,20082,20082,20082,
20082,20082,20082,20082,20088,12606,12607,12608,12609,12610,20082,20082,20082,20082,20082,20043,20043,20043,20043,20082,20082,20082,20082,20082,20082,20082,20082,20087,20451,20451,20451,20451,12633,12634,12635,20451,20451,20451,20451,20451,20451,20451,20451,20451,20451,20451,20451,20451,20451,20451,20451,20451,20451,20451,12655,12656,12657,20451,12659,12660,12661,12662,12663,12664,12665,12666,20451,20394,12669,12670,12671,20394,20394,20394,20422,12676,12677,12678,12679,12680,12681,20422,20092,20043,20043,20043,20043,20082,20082,20082,20082,20082,20082,20082,20082,20082,20082,20082,20082,20082,
20082,20082,20082,20082,20088,12706,12707,12708,12709,12710,20082,20082,20082,20082,20082,20043,20043,20043,20043,20082,20082,20082,20082,20082,20082,20082,20082,20087,20451,20451,20451,20451,12733,12734,12735,20451,20451,20451,20451,20451,20451,20451,20451,20451,20451,20451,20451,20451,20451,20451,20451,20451,20451,20451,12755,12756,12757,20451,12759,12760,12761,12762,12763,12764,12765,12766,20451,20394,12769,12770,12771,20394,20394,20394,20390,12776,12777,12778,12779,12780,12781,20390,20092,20043,20043,20043,20043,20082,20082,20082,20082,20082,20082,20082,20082,20082,20082,20082,20082,20082,
20082,20082,20082,20082,20088,12806,12807,12808,12809,12810,20082,20082,20082,20082,20082,20043,20043,20043,20043,20082,20082,20082,20082,20082,20082,20082,20082,20087,20451,20451,20451,20451,12833,12834,12835,20451,20451,20451,20451,20451,20451,20451,20451,12844,12845,12846,12847,12848,12849,12850,12851,20451,20451,12854,12855,12856,12857,20451,12859,12860,12861,12862,12863,12864,12865,12866,20451,20394,12869,12870,12871,20394,20394,20394,20422,12876,12877,12878,12879,12880,12881,20422,20092,20043,20043,20043,20043,20082,20082,20082,20082,20082,20082,20082,20082,20082,20082,20082,20082,20082,
20082,20082,20082,20082,20088,12906,12907,12908,12909,12910,20082,20082,20082,20082,20082,20043,20043,20043,20043,20082,20082,20082,20082,20082,20082,20082,20082,20087,20451,20451,20451,20451,12933,12934,12935,20451,20451,20451,20451,20451,20451,20451,20451,12944,12945,12946,12947,12948,12949,12950,12951,12952,12953,12954,12955,12956,12957,20451,12959,12960,12961,12962,12963,12964,12965,12966,20451,20394,12969,12970,12971,20394,20394,20394,20390,12976,12977,12978,12979,12980,12981,20390,20092,20043,20043,20043,20043,20082,20082,20082,20082,20082,20082,20082,20082,20082,20082,20082,20082,20082,
20082,20082,20082,20082,20088,13006,13007,13008,13009,13010,20082,20082,20082,20082,20082,20043,20043,20043,20043,20082,20082,20082,20082,20082,20082,20082,20082,20087,20451,20451,20451,20451,13033,13034,13035,20451,20451,20451,20451,20451,20451,20451,20451,13044,13045,13046,13047,13048,13049,13050,13051,13052,13053,13054,13055,13056,13057,20451,13059,13060,13061,13062,13063,13064,13065,13066,20451,20394,13069,13070,13071,20394,20394,20394,20422,13076,13077,13078,13079,13080,13081,20422,20092,20043,20043,20043,20043,20082,20082,20082,20082,20082,20082,20082,20082,20082,20082,20082,20082,20082,
20082,20082,20082,20082,20088,13106,13107,13108,13109,13110,20082,20082,20082,20082,20082,20043,20043,20043,20043,20082,20082,20082,20082,20082,20082,20082,20082,20087,20451,20451,20451,20451,13133,13134,13135,20451,20451,20451,20451,20451,20451,20451,20451,13144,13145,13146,13147,13148,13149,13150,13151,13152,13153,13154,13155,13156,13157,20451,13159,13160,13161,13162,13163,13164,13165,13166,20451,20394,13169,13170,13171,20394,20394,20394,20390,13176,13177,13178,13179,13180,13181,20390,20092,20043,20043,20043,20043,20082,20082,20082,20082,20082,20082,20082,20082,20082,20082,20082,20082,20082,
20082,20082,20082,20082,20088,13206,13207,13208,13209,13210,20082,20082,20082,20082,20082,20043,20043,20043,20043,20082,20082,20082,20082,20082,20082,20082,20082,20087,20451,20451,20451,20451,13233,13234,13235,20451,20451,20451,20451,20451,20451,20451,20451,13244,13245,13246,13247,13248,13249,13250,13251,13252,13253,13254,13255,13256,13257,20451,13259,13260,13261,13262,13263,13264,13265,13266,20451,20394,13269,13270,13271,20394,20394,20394,20422,13276,13277,13278,13279,13280,13281,20422,20092,20043,20043,20043,20043,20082,20082,20082,20082,20082,20082,20082,20082,20082,20082,20082,20082,20082,
20082,20082,20082,20082,20088,13306,13307,13308,13309,13310,20082,20082,20082,20082,20082,20043,20043,20043,20043,20082,20082,20082,20082,20082,20082,20082,20082,20087,20451,20451,20451,20451,13333,13334,13335,20451,20451,20451,20451,20451,20451,20451,20451,13344,13345,13346,13347,13348,13349,13350,13351,13352,13353,13354,13355,13356,13357,20451,13359,13360,13361,13362,13363,13364,13365,13366,20451,20394,13369,13370,13371,20394,20394,20394,20390,13376,13377,13378,13379,13380,13381,20390,20092,20043,20043,20043,20043,20082,20082,20082,20082,20082,20082,20082,20082,20082,20082,20082,20082,20082,
20082,20082,20082,20082,20088,13406,13407,13408,13409,13410,20082,20082,20082,20082,20082,20043,20043,20043,20043,20082,20082,20082,20082,20082,20082,20082,20082,20087,20451,20451,20451,20451,13433,13434,13435,13436,13437,13438,13439,13440,13441,13442,13443,13444,13445,13446,13447,13448,13449,13450,13451,13452,13453,13454,13455,13456,13457,13458,13459,13460,13461,13462,13463,13464,13465,13466,20451,20394,13469,13470,13471,20394,20394,20394,20422,13476,13477,13478,13479,13480,13481,20422,20092,20043,20043,20043,20043,20082,20082,20082,20082,20082,20082,20082,20082,20082,20082,20082,20082,20082,
20082,20082,20082,20082,20088,13506,13507,13508,13509,13510,20041,20041,20082,20082,20082,20043,20043,20043,20043,20082,20082,20082,20082,20082,20082,20082,20082,20087,13529,13530,13531,13532,13533,13534,13535,13536,13537,13538,13539,13540,13541,13542,13543,13544,13545,13546,13547,13548,13549,13550,13551,13552,13553,13554,13555,13556,13557,13558,13559,13560,13561,13562,13563,13564,13565,13566,13567,13568,13569,13570,13571,20394,20394,20394,20390,13576,13577,13578,13579,13580,13581,20390,20092,20043,20043,20043,20043,20082,20082,20082,20082,20082,20082,20082,20082,20082,20082,20082,20082,20082,
20082,20082,20082,20082,20088,13606,13607,13608,13609,13610,20041,20041,20082,20082,20082,20043,20043,20043,20043,20082,20082,20082,20082,20082,20082,20082,20082,20087,13629,13630,13631,13632,13633,13634,13635,13636,13637,13638,13639,13640,13641,13642,13643,13644,13645,13646,13647,13648,13649,13650,13651,13652,13653,13654,13655,13656,13657,13658,13659,13660,13661,13662,13663,13664,13665,13666,13667,13668,13669,13670,13671,20394,20394,20394,20422,13676,13677,13678,13679,13680,13681,20422,20092,20043,20043,20043,20043,20082,20082,20082,20082,20082,20082,20082,20082,20082,20082,20082,20082,20082,
20082,20082,20082,20082,20088,13706,13707,13708,13709,13710,20082,20082,20082,20082,20082,20043,20043,20043,20043,20082,20082,20082,20082,20082,20082,20082,20082,20087,20394,20394,20394,20394,20394,20394,20394,20394,20394,20394,13739,13740,13741,13742,13743,13744,13745,13746,13747,13748,13749,13750,13751,13752,13753,13754,13755,13756,13757,13758,13759,13760,13761,13762,13763,13764,13765,13766,13767,13768,13769,13770,13771,20394,20394,20394,20390,13776,13777,13778,13779,13780,13781,20390,20092,20043,20043,20043,20043,20082,20082,20082,20082,20082,20082,20082,20082,20082,20082,20082,20082,20082,
20082,20082,20082,20082,20088,13806,13807,13808,13809,13810,20082,20082,20082,20082,20082,20043,20043,20043,20043,20082,20082,20082,20082,20082,20082,20082,20082,20423,20394,20394,20394,20394,20394,20394,20394,20394,20394,20394,13839,13840,13841,13842,13843,13844,13845,13846,13847,13848,13849,13850,13851,13852,13853,13854,13855,13856,13857,13858,13859,13860,13861,13862,13863,13864,13865,13866,13867,13868,13869,13870,13871,20394,20394,20394,20422,13876,13877,13878,13879,13880,13881,20422,20092,20043,20043,20043,20043,20082,20082,20082,20082,20082,20082,20082,20082,20082,20082,20082,20082,20082,
20082,20082,20082,20082,20088,13906,13907,20042,20042,20042,20086,20082,20082,20082,20082,20043,20043,20043,20043,20082,20082,20082,20082,20082,20082,20082,20082,20423,20394,20394,13931,13932,13933,13934,13935,13936,13937,13938,13939,13940,13941,13942,13943,13944,13945,13946,13947,13948,13949,13950,13951,13952,13953,13954,13955,13956,13957,13958,13959,13960,13961,13962,13963,13964,13965,13966,13967,13968,13969,13970,13971,20394,20394,20394,20390,13976,13977,13978,13979,13980,13981,20390,20092,20043,20043,20043,20043,20082,20082,20082,20082,20082,20082,20082,20082,20082,20082,20082,20082,20082,
20043,20043,20043,20043,20043,20043,20043,20043,20043,20043,20043,20043,20043,20043,20043,20043,20043,20043,20043,20043,20043,20043,20043,20043,20043,20043,20043,20423,14029,14030,14031,14032,14033,14034,14035,14036,14037,14038,14039,14040,14041,14042,14043,14044,14045,14046,14047,14048,14049,14050,14051,14052,14053,14054,14055,14056,14057,14058,14059,14060,14061,14062,14063,14064,14065,14066,14067,14068,14069,14070,14071,20394,20394,20394,20422,14076,14077,14078,14079,14080,14081,20422,20092,20043,20043,20043,20043,20082,20082,20082,20082,20082,20082,20082,20082,20082,20082,20082,20082,20082,
20043,20043,20043,20043,20043,20043,20043,20043,20043,20043,20043,20043,20043,20043,20043,20043,20043,20043,20043,20043,20043,20043,20043,20043,20043,20043,20043,20423,20394,20394,20394,20394,20394,20394,20394,20394,20394,20394,20394,14140,14141,14142,14143,14144,14145,14146,14147,14148,14149,14150,14151,14152,14153,14154,14155,14156,14157,14158,14159,14160,14161,14162,14163,14164,14165,14166,14167,14168,14169,14170,14171,20394,20394,20394,20390,14176,14177,14178,14179,14180,14181,20390,20092,20043,20043,20043,20043,20082,20082,20082,20082,20082,20082,20082,20082,20082,20082,20082,20082,20082,
20043,20043,20043,20043,20043,20043,20043,20043,20043,20043,20043,20043,20043,20043,20043,20043,20043,20043,20043,20043,20043,20043,20043,20043,20043,20043,20043,20423,20394,20394,20394,20394,20394,20394,20394,20394,20394,20394,20394,14240,14241,14242,14243,14244,14245,14246,14247,14248,14249,14250,14251,14252,14253,14254,14255,14256,14257,14258,14259,14260,14261,14262,14263,14264,14265,14266,14267,14268,14269,14270,14271,20394,20394,20394,20422,14276,14277,14278,14279,14280,14281,20422,20092,20043,20043,20043,20043,20082,20082,20082,20082,20082,20082,20082,20082,20082,20082,20082,20082,20082,
20082,20082,20082,20082,20088,14306,14307,20042,20042,20042,20086,20082,20043,20043,20043,20043,20081,20082,20082,20082,20082,20082,20082,20082,20082,20082,20082,20087,20394,20394,20394,20394,20394,20394,20394,20394,20394,20394,20394,14340,14341,14342,14343,14344,14345,14346,14347,14348,14349,14350,14351,14352,14353,14354,14355,14356,14357,14358,14359,14360,14361,14362,14363,14364,14365,14366,14367,14368,14369,14370,14371,20394,20394,20394,20390,14376,14377,14378,14379,14380,14381,20390,20092,20043,20043,20043,20043,20082,20082,20082,20082,20082,20082,20082,20082,20082,20082,20082,20082,20082,
20082,20082,20082,20082,20088,14406,14407,14408,14409,14410,20043,20043,20043,20043,20043,20043,20081,20082,20082,20082,20082,20082,20082,20082,20082,20082,20082,20082,14429,14430,14431,14432,14433,14434,14435,14436,14437,14438,14439,14440,14441,14442,14443,14444,14445,14446,14447,14448,14449,14450,14451,14452,14453,14454,14455,14456,14457,14458,14459,14460,14461,14462,14463,14464,14465,14466,14467,14468,14469,14470,14471,20394,20394,20394,20422,14476,14477,14478,14479,14480,14481,20422,20092,20043,20043,20043,20043,20082,20082,20082,20082,20082,20082,20082,20082,20082,20082,20082,20082,20082,
20082,20082,20082,20082,20088,14506,14507,14508,14509,14510,20043,20043,20043,20043,20043,20043,20081,20082,20082,20082,20082,20082,20082,20082,20082,20082,20082,20082,14529,14530,14531,14532,14533,14534,14535,14536,14537,14538,14539,14540,14541,14542,14543,14544,14545,14546,14547,14548,14549,14550,14551,14552,14553,14554,14555,14556,14557,14558,14559,14560,14561,14562,14563,14564,14565,14566,14567,14568,14569,14570,14571,20394,20394,20394,20390,14576,14577,14578,14579,14580,14581,20390,20092,20043,20043,20043,20043,20082,20082,20082,20082,20082,20082,20082,20082,20082,20082,20082,20082,20082,
20082,20082,20082,20082,20088,14606,14607,14608,14609,14610,20043,20043,20043,20043,20043,20043,20081,20082,20082,20082,20082,20082,20082,20041,20041,20082,20082,20082,20390,20390,20390,20390,20390,20390,20390,20390,20390,20390,20390,20390,20390,20390,20390,20390,20390,20390,20390,20390,20390,20390,20390,20390,20390,20390,20390,20390,20390,20390,20390,20390,20390,20390,20390,20390,14665,14666,14667,14668,14669,14670,14671,14672,14673,14674,20422,14676,14677,14678,14679,14680,14681,20422,20092,20043,20043,20043,20043,20082,20082,20082,20082,20082,20082,20082,20082,20082,20082,20082,20082,20082,
20082,20082,20082,20082,20088,14706,14707,14708,14709,14710,20043,20043,20043,20043,20043,20043,20081,20082,20082,20082,20082,20082,20082,20041,20041,20082,20082,20390,20422,20422,20422,20422,20422,20422,20422,20422,20422,20422,20422,20422,20422,20422,20422,20422,20422,20422,20422,20422,20422,20422,20422,20422,20422,20422,20422,20422,20422,20422,20422,20391,20422,20422,20422,20422,14765,14766,20394,20394,20394,20394,20394,20394,20394,20394,20390,20394,20394,20394,20394,20248,20248,20390,20092,20043,20043,20043,20043,20082,20082,20082,20082,20082,20082,20082,20082,20082,20082,20082,20082,20082,
20082,20082,20082,20082,20088,20088,14807,14808,14809,14810,20043,20043,20043,20043,20043,20043,20081,20082,20082,20082,20082,20082,20082,20082,20082,20082,20082,20082,14829,14830,14831,14832,14833,14834,14835,14836,14837,14838,14839,14840,14841,14842,14843,14844,14845,14846,14847,14848,14849,14850,14851,14852,14853,14854,14855,14856,14857,14858,14859,20423,14861,14862,14863,14864,14865,14866,14867,14868,14869,14870,14871,14872,14873,14874,14875,14876,14877,14878,14879,20248,20248,20422,20092,20043,20043,20043,20043,20082,20082,20082,20082,20082,20082,20082,20082,20082,20082,20082,20082,20082,
20082,20082,20082,20082,20088,20088,14907,14908,14909,14910,20043,20107,20107,20107,20107,20107,20107,20107,20107,20107,20107,20107,20107,20107,20107,20107,20107,20107,20107,20107,20107,20107,20107,20107,20107,20107,20107,20107,20107,20107,20107,20107,20107,20107,20107,20107,20107,20107,20107,20107,20107,20107,20107,20107,20107,20107,20107,20107,20041,20391,14961,14962,14963,14964,14965,14966,14967,14968,14969,14970,14971,14972,14973,14974,14975,14976,14977,14978,14979,20248,20248,20390,20092,20043,20043,20043,20043,20082,20082,20082,20082,20082,20082,20082,20082,20082,20082,20082,20082,20082,
15001,15002,15003,15004,15005,15006,15007,15008,15009,15010,20042,20042,20042,20042,20042,20042,20042,20042,15019,15020,15021,15022,15023,15024,15025,15026,15027,15028,15029,15030,15031,15032,15033,15034,15035,15036,15037,15038,15039,15040,15041,15042,15043,15044,15045,15046,15047,15048,15049,15050,15051,15052,15053,15054,15055,15056,15057,15058,20041,20423,15061,15062,15063,15064,15065,15066,15067,15068,15069,15070,15071,15072,15073,15074,15075,15076,15077,15078,15079,15080,15081,20422,20092,20043,20043,20043,20043,20082,20082,20082,20082,20082,20082,20082,20082,20082,20082,20082,20082,20082,
15101,15102,15103,15104,15105,15106,15107,15108,15109,15110,20042,20042,20042,20042,20042,20042,20042,20042,15119,15120,15121,15122,15123,15124,15125,15126,15127,15128,15129,15130,15131,15132,15133,15134,15135,15136,15137,15138,15139,15140,15141,15142,15143,15144,15145,15146,15147,15148,15149,15150,15151,15152,15153,15154,15155,15156,15157,15158,15159,20391,15161,15162,15163,15164,15165,15166,15167,15168,15169,15170,15171,15172,15173,15174,15175,15176,15177,15178,15179,15180,15181,20390,20092,20043,20043,20043,20043,20082,20082,20082,20082,20082,20082,20082,20082,20082,20082,20082,20082,20082,
15201,15202,15203,15204,15205,15206,15207,15208,15209,15210,20042,20042,20042,20042,20042,20042,20042,20042,15219,15220,15221,15222,15223,15224,15225,15226,15227,15228,15229,15230,15231,15232,15233,15234,15235,15236,15237,15238,15239,15240,15241,15242,15243,15244,15245,15246,15247,15248,15249,15250,15251,15252,15253,15254,15255,15256,15257,15258,20042,20423,15261,15262,15263,15264,15265,15266,15267,15268,15269,15270,15271,15272,15273,15274,15275,15276,15277,15278,15279,15280,15281,20422,20092,20043,20043,20043,20043,20082,20082,20082,20082,20082,20082,20082,20082,20082,20082,20082,20082,20082,
15301,15302,15303,15304,15305,15306,15307,15308,15309,15310,20042,20042,20042,20042,20042,20042,20042,20042,15319,15320,15321,15322,15323,15324,15325,15326,15327,15328,15329,15330,15331,15332,15333,15334,15335,15336,15337,15338,15339,15340,15341,15342,15343,15344,15345,15346,15347,15348,15349,15350,15351,15352,15353,15354,15355,15356,15357,15358,20042,20391,15361,15362,15363,15364,15365,15366,15367,15368,15369,15370,15371,15372,15373,15374,15375,15376,15377,15378,15379,15380,15381,20390,20092,20043,20043,20043,20043,20082,20082,20082,20082,20082,20082,20082,20082,20082,20082,20082,20082,20082,
15401,15402,15403,15404,15405,15406,15407,15408,15409,15410,20042,20042,20042,20042,20042,20042,20042,20042,15419,15420,15421,15422,15423,15424,15425,15426,15427,20390,20391,20390,20391,20390,20391,20390,20391,20390,20391,20390,20391,20390,20391,20390,20391,20390,20391,20390,20391,20390,20391,20390,20391,20390,20391,20390,20391,20390,20391,20390,20087,20390,15461,15462,15463,15464,15465,15466,15467,15468,15469,15470,15471,15472,15473,15474,15475,15476,15477,15478,15479,15480,15481,20422,20092,20043,20043,20043,20043,20082,20082,20082,20082,20082,20082,20082,20082,20082,20082,20082,20082,20082,
15501,15502,15503,15504,15505,20066,15507,15508,15509,15510,20083,20067,20043,20043,20043,20043,20067,20067,20067,20067,20067,20067,20067,20067,20067,20067,20067,20390,20391,20390,20391,20390,20391,20390,20391,20390,20391,20390,20391,20390,20391,20390,20391,20390,20391,20390,20391,20390,20391,20390,20391,20390,20391,20390,20391,20390,20391,20390,20391,20390,15561,15562,15563,15564,15565,15566,15567,15568,15569,15570,15571,15572,15573,15574,15575,15576,15577,15578,15579,15580,15581,20390,20092,20043,20043,20043,20043,20082,20082,20082,20082,20082,20082,20082,20082,20082,20082,20082,20082,20082,
15601,15602,15603,15604,15605,20086,20082,20082,20082,20083,20083,20083,20043,20043,20082,20082,20081,20082,20082,20082,20082,20082,20082,20082,20082,20082,20082,20422,15629,15630,15631,15632,15633,15634,15635,15636,15637,15638,15639,15640,15641,15642,15643,15644,15645,15646,15647,15648,15649,15650,15651,15652,15653,15654,15655,15656,15657,15658,15659,15660,15661,15662,15663,15664,15665,15666,15667,15668,15669,15670,15671,15672,15673,15674,15675,15676,15677,15678,15679,15680,15681,20422,20092,20043,20043,20043,20043,20082,20082,20082,20082,20082,20082,20082,20082,20082,20082,20082,20082,20082,
15701,15702,15703,15704,15705,20086,20082,20082,20082,20083,20083,20083,20043,20043,20082,20082,20081,20082,20082,20082,20082,20082,20082,20082,20082,20082,20082,20390,15729,15730,15731,15732,15733,15734,15735,15736,15737,15738,15739,15740,15741,15742,15743,15744,15745,15746,15747,15748,15749,15750,15751,15752,15753,15754,15755,15756,15757,15758,15759,15760,15761,15762,15763,15764,15765,15766,15767,15768,15769,15770,15771,15772,15773,15774,15775,15776,15777,15778,15779,15780,15781,20390,20092,20043,20043,20043,20043,20082,20082,20082,20082,20082,20082,20082,20082,20082,20082,20082,20082,20082,
20042,20042,20042,20042,20042,20086,20082,20082,20082,20082,20082,20083,20043,20043,20043,20043,20081,20082,20082,20082,20082,20082,20082,20082,20082,20082,20082,20422,20440,20440,20440,20440,20440,20440,20440,20440,20440,20440,20440,20440,20440,20440,20440,20440,20440,20440,20440,20440,20440,20440,20440,20440,20440,20440,20440,20440,20440,20440,20440,20440,20440,20440,15863,15864,15865,15866,15867,15868,15869,15870,15871,15872,15873,15874,15875,15876,15877,15878,15879,15880,15881,20422,20092,20043,20043,20043,20043,20081,20041,20041,20041,20041,20041,20041,20041,20041,20041,20041,20041,20041,
20042,20042,20042,20042,20042,20086,20082,20082,20082,20082,20082,20083,20043,20043,20043,20043,20081,20082,20082,20082,20082,20082,20082,20082,20082,20082,20082,20390,20440,20440,20440,20440,20440,20440,20440,20440,20440,20440,20440,20440,20440,20440,20440,20440,20440,20440,20440,20440,20440,20440,20440,20440,20440,20440,20440,20440,20440,20440,20440,20440,20440,20440,15963,15964,15965,15966,15967,15968,15969,15970,15971,15972,15973,15974,15975,15976,15977,15978,15979,15980,15981,20390,20092,20043,20043,20043,20043,20081,20041,20041,20041,20041,20041,20041,20041,20041,20041,20041,20041,20041,
20042,20042,20042,20042,20042,20086,20082,20082,20082,20082,20082,20083,20043,20043,20043,20043,20081,20082,20082,20082,20082,20082,20082,20082,20082,20082,20082,20422,20440,20440,20440,20440,20440,20440,20440,20440,20440,20440,20440,20440,20440,20440,20440,20440,20440,20440,20440,20440,20440,20440,20440,20440,20440,20440,20440,20440,20440,20440,20440,20440,20440,20440,16063,16064,16065,16066,16067,16068,16069,16070,16071,16072,16073,16074,16075,16076,16077,16078,16079,16080,16081,20422,20092,20043,20043,20043,20043,20081,20041,20041,20041,20041,20041,20041,20041,20041,20041,20041,20041,20041,
20042,20042,20042,20042,20042,20086,20082,20082,20082,20082,20082,20083,20043,20043,20043,20043,20081,20082,20082,20082,20082,20082,20082,20082,20082,20082,20082,20390,20440,20440,20440,20440,20440,20440,20440,20440,20440,20440,20440,20440,20440,20440,20440,20440,20440,20440,20440,20440,20440,20440,20440,20440,20440,20440,20440,20440,20440,20440,20440,20440,20440,20440,16163,16164,16165,16166,16167,16168,16169,16170,16171,16172,16173,16174,16175,16176,16177,16178,16179,16180,16181,20390,20092,20043,20043,20043,20043,20081,20041,20041,20041,20041,20041,20041,20041,20041,20041,20041,20041,20041,
16201,16202,16203,16204,16205,20086,20082,20082,20082,20083,20082,20083,20043,20043,20043,20043,20081,20082,20082,20082,20082,20082,20082,20082,20082,20082,20082,20422,20394,20394,20394,20394,20394,20394,20394,20394,20394,20394,20394,20394,20394,20394,20394,20394,20394,20394,20394,20394,20394,20394,16251,16252,16253,16254,16255,16256,16257,16258,16259,16260,16261,16262,16263,16264,16265,16266,16267,16268,16269,16270,16271,16272,16273,16274,16275,16276,16277,16278,16279,16280,16281,20422,20092,20043,20043,20043,20043,20082,20082,20082,20082,20082,20082,20082,20082,20082,20082,20082,20082,20082,
16301,16302,16303,16304,16305,20086,20082,20082,20082,20083,20082,20083,20043,20043,20043,20043,20081,20082,20082,20082,20082,20082,20082,20082,20082,20082,20082,20390,16329,16330,16331,16332,16333,16334,16335,16336,16337,16338,16339,16340,16341,16342,16343,16344,16345,16346,16347,16348,16349,16350,16351,16352,16353,16354,16355,16356,16357,16358,16359,16360,16361,16362,16363,16364,16365,16366,16367,16368,16369,16370,16371,16372,16373,16374,16375,16376,16377,16378,16379,16380,16381,20390,20092,20043,20043,20043,20043,20082,20082,20082,20082,20082,20082,20082,20082,20082,20082,20082,20082,20082,
16401,16402,16403,16404,16405,20086,20082,20082,20082,20083,20082,20083,20043,20043,20043,20043,20081,20082,20082,20082,20082,20082,20082,20082,20082,20082,20082,20422,16429,16430,16431,16432,16433,16434,16435,16436,16437,16438,16439,16440,16441,16442,16443,16444,16445,16446,16447,16448,16449,16450,16451,16452,16453,16454,16455,16456,16457,16458,16459,16460,16461,16462,16463,16464,16465,16466,16467,16468,16469,16470,16471,16472,16473,16474,16475,16476,16477,16478,16479,16480,16481,20422,20092,20043,20043,20043,20043,20082,20082,20082,20082,20082,20082,20082,20082,20082,20082,20082,20082,20082,
16501,16502,16503,16504,16505,20086,20082,20082,20082,20083,20082,20083,20043,20043,20043,20043,20081,20082,20082,20082,20082,20082,20082,20082,20082,20082,20082,20390,16529,16530,16531,16532,16533,16534,16535,16536,16537,16538,16539,16540,16541,16542,16543,16544,16545,16546,20661,16548,16549,16550,16551,16552,16553,16554,16555,16556,16557,16558,16559,16560,16561,16562,16563,16564,16565,16566,16567,16568,16569,16570,16571,16572,16573,16574,16575,16576,16577,16578,16579,16580,16581,20390,20092,20043,20043,20043,20043,20082,20082,20082,20082,20082,20082,20082,20082,20082,20082,20082,20082,20082,
16601,16602,16603,16604,16605,20086,20082,20082,20082,20083,20082,20083,20043,20043,20043,20043,20081,20082,20082,20082,20082,20082,20082,20082,20082,20082,20082,20422,16629,16630,16631,16632,16633,16634,16635,20661,20661,20661,20661,20661,20661,20661,20661,20661,20661,20661,20661,20661,16649,16650,16651,16652,16653,16654,16655,16656,16657,16658,16659,16660,16661,16662,16663,16664,16665,16666,16667,16668,16669,16670,16671,16672,16673,16674,16675,16676,16677,16678,16679,16680,16681,20422,20092,20043,20043,20043,20043,20082,20082,20082,20082,20082,20082,20082,20082,20082,20082,20082,20082,20082,
16701,16702,16703,16704,16705,20086,20082,20082,20082,20083,20082,20083,20043,20043,20043,20043,20081,20082,20082,20082,20082,20082,20082,20082,20082,20082,20082,20390,16729,16730,16731,16732,16733,16734,16735,20661,20661,20661,20661,20661,20661,20661,20661,20661,20661,20661,20661,20661,16749,16750,16751,16752,16753,16754,16755,16756,16757,16758,16759,16760,16761,16762,16763,16764,16765,16766,16767,16768,16769,16770,16771,16772,16773,16774,16775,16776,16777,16778,16779,16780,16781,20390,20092,20043,20043,20043,20043,20082,20082,20082,20082,20082,20082,20082,20082,20082,20082,20082,20082,20082,
16801,16802,16803,16804,16805,20086,20082,20082,20082,20083,20082,20083,20043,20043,20043,20043,20081,20082,20082,20082,20082,20082,20082,20082,20082,20082,20082,20422,16829,16830,16831,16832,16833,20661,20661,20661,20661,20661,20661,20661,20661,20661,20661,20661,20661,20661,20661,20661,20661,20661,16851,16852,16853,16854,16855,16856,16857,16858,16859,16860,16861,16862,16863,16864,16865,16866,16867,16868,16869,16870,16871,16872,16873,16874,16875,16876,16877,16878,16879,16880,16881,20422,20092,20043,20043,20043,20043,20082,20082,20082,20082,20082,20082,20082,20082,20082,20082,20082,20082,20082,
16901,16902,16903,16904,16905,20086,20082,20082,20082,20083,20082,20083,20043,20043,20043,20043,20081,20082,20082,20082,20082,20082,20082,20082,20082,20082,20082,20390,16929,16930,16931,16932,16933,20661,20661,20661,20661,20661,20661,20661,20661,20661,20661,20661,20661,20661,20661,20661,20661,20661,16951,16952,16953,16954,16955,16956,16957,16958,16959,16960,16961,16962,16963,16964,16965,16966,16967,16968,16969,16970,16971,16972,16973,16974,16975,16976,16977,16978,16979,16980,16981,20390,20092,20043,20043,20043,20043,20082,20082,20082,20082,20082,20082,20082,20082,20082,20082,20082,20082,20082,
17001,17002,17003,17004,17005,20086,20082,20082,20082,20083,20082,20083,20043,20043,20043,20043,20081,20082,20082,20082,20082,20082,20082,20082,20082,20082,20082,20422,17029,17030,17031,17032,17033,20661,20661,20661,20661,20661,20661,20661,20661,20661,20661,20661,20661,20661,20661,20661,20661,20661,17051,17052,17053,17054,17055,17056,17057,17058,17059,17060,17061,17062,17063,17064,17065,17066,17067,17068,17069,17070,17071,17072,17073,17074,17075,17076,20394,17078,17079,17080,17081,20422,20092,20043,20043,20043,20043,20082,20082,20082,20082,20082,20082,20082,20082,20082,20082,20082,20082,20082,
17101,17102,17103,17104,17105,20086,20082,20082,20082,20083,20082,20083,20043,20043,20043,20043,20081,20082,20082,20082,20082,20082,20082,20082,20082,20082,20082,20390,17129,17130,17131,17132,17133,20661,20661,20661,20661,20661,20661,20661,20661,20661,20661,20661,20661,20661,20661,20661,20661,20661,17151,17152,17153,17154,20394,20394,20394,17158,17159,17160,17161,17162,17163,17164,17165,17166,17167,17168,17169,17170,17171,17172,17173,17174,17175,17176,20394,17178,17179,17180,17181,20390,20092,20043,20043,20043,20043,20082,20082,20082,20082,20082,20082,20082,20082,20082,20082,20082,20082,20082,
17201,17202,17203,17204,17205,20086,20082,20082,20082,20083,20082,20083,20043,20043,20043,20043,20081,20082,20082,20082,20082,20082,20082,20082,20082,20082,20082,20422,17229,17230,17231,17232,17233,20661,20661,20661,20661,20661,20661,20661,20661,20661,20661,20661,20661,20661,20661,20661,20661,20661,17251,17252,17253,17254,20394,20394,20394,17258,17259,17260,17261,17262,17263,17264,17265,17266,17267,17268,17269,17270,17271,17272,17273,17274,17275,17276,20394,17278,17279,17280,17281,20422,20092,20043,20043,20043,20043,20082,20082,20082,20082,20082,20082,20082,20082,20082,20082,20082,20082,20082,
17301,17302,17303,17304,17305,20086,20082,20082,20082,20083,20082,20083,20043,20043,20043,20043,20081,20082,20082,20082,20082,20082,20082,20082,20082,20082,20082,20390,17329,17330,17331,17332,17333,20661,20661,20661,20661,20661,20661,20661,20661,20661,20661,20661,20661,20661,20661,20661,20661,20661,17351,17352,17353,17354,20394,20394,20394,17358,17359,17360,17361,17362,17363,17364,17365,17366,17367,17368,17369,17370,17371,17372,17373,17374,17375,17376,20394,17378,17379,17380,17381,20390,20092,20043,20043,20043,20043,20082,20082,20082,20082,20082,20082,20082,20082,20082,20082,20082,20082,20082,
17401,17402,17403,17404,17405,20086,20082,20082,20082,20083,20082,20083,20043,20043,20043,20043,20081,20082,20082,20082,20082,20082,20082,20082,20082,20082,20082,20422,17429,17430,17431,17432,17433,20661,20661,20661,20661,20661,20661,20661,20661,20661,20661,20661,20661,20661,20661,20661,20661,20661,17451,17452,17453,17454,20394,20394,20394,17458,17459,17460,17461,17462,17463,17464,17465,17466,17467,17468,17469,17470,17471,17472,17473,17474,17475,17476,20394,17478,17479,17480,17481,20422,20092,20043,20043,20043,20043,20082,20082,20082,20082,20082,20082,20082,20082,20082,20082,20082,20082,20082,
17501,17502,17503,17504,17505,20086,20082,20082,20082,20083,20082,20083,20043,20043,20043,20043,20081,20082,20082,20082,20082,20082,20082,20082,20082,20082,20082,20390,17529,17530,17531,17532,17533,20661,20661,20661,20661,20661,20661,20661,20661,20661,20661,20661,20661,20661,20661,20661,20661,20661,17551,17552,17553,17554,20394,20394,20394,17558,17559,17560,17561,17562,17563,17564,17565,17566,17567,17568,17569,17570,17571,17572,17573,17574,17575,17576,20394,17578,17579,17580,17581,20390,20092,20043,20043,20043,20043,20082,20082,20082,20082,20082,20082,20082,20082,20082,20082,20082,20082,20082,
17601,17602,17603,17604,17605,20086,20082,20082,20082,20083,20082,20083,20043,20043,20043,20043,20081,20082,20082,20082,20082,20082,20082,20082,20082,20082,20082,20422,17629,17630,17631,17632,17633,17634,17635,17636,17637,17638,17639,17640,17641,17642,17643,17644,17645,17646,17647,17648,17649,17650,17651,17652,17653,17654,20394,20394,20394,17658,17659,17660,17661,17662,17663,17664,17665,17666,17667,17668,17669,17670,17671,17672,17673,17674,17675,17676,20394,17678,17679,17680,17681,20422,20092,20043,20043,20043,20043,20082,20082,20082,20082,20082,20082,20082,20082,20082,20082,20082,20082,20082,
17701,17702,17703,17704,17705,20086,20082,20082,20082,20083,20082,20083,20043,20043,20043,20043,20081,20082,20082,20082,20082,20082,20082,20082,20082,20082,20082,20390,17729,17730,17731,17732,17733,17734,17735,17736,17737,17738,17739,17740,20661,20661,20661,17744,17745,17746,17747,17748,17749,17750,17751,17752,17753,17754,20394,20394,20394,17758,17759,17760,17761,17762,17763,17764,17765,17766,17767,17768,17769,17770,17771,17772,17773,17774,17775,17776,20394,17778,17779,17780,17781,20390,20092,20043,20043,20043,20043,20082,20082,20082,20082,20082,20082,20082,20082,20082,20082,20082,20082,20082,
17801,17802,17803,17804,17805,20086,20082,20082,20082,20083,20082,20083,20043,20043,20043,20043,20081,20082,20082,20082,20082,20082,20082,20082,20082,20082,20082,20422,17829,17830,17831,17832,17833,17834,17835,17836,17837,17838,17839,17840,20661,20661,20661,17844,17845,17846,17847,17848,17849,17850,17851,17852,17853,17854,17855,17856,17857,17858,17859,17860,17861,17862,17863,17864,17865,17866,17867,17868,17869,17870,17871,17872,17873,17874,17875,17876,20394,17878,17879,17880,17881,20422,20092,20043,20043,20043,20043,20082,20082,20082,20082,20082,20082,20082,20082,20082,20082,20082,20082,20082,
17901,17902,17903,17904,17905,20086,20082,20082,20082,20083,20082,20083,20043,20043,20043,20043,20081,20082,20082,20082,20082,20082,20082,20082,20082,20082,20082,20390,17929,17930,17931,17932,17933,17934,17935,17936,17937,17938,17939,17940,17941,17942,17943,17944,17945,17946,17947,17948,17949,17950,17951,17952,17953,17954,17955,17956,17957,17958,17959,17960,17961,17962,17963,17964,17965,17966,17967,17968,17969,17970,17971,17972,17973,17974,17975,17976,20394,17978,17979,17980,17981,20390,20092,20043,20043,20043,20043,20082,20082,20082,20082,20082,20082,20082,20082,20082,20082,20082,20082,20082,
18001,18002,18003,18004,18005,20086,20082,20082,20082,20083,20082,20083,20043,20043,20043,20043,20081,20082,20082,20082,20082,20082,20082,20082,20082,20082,20082,20422,18029,18030,18031,18032,18033,18034,18035,18036,18037,18038,18039,18040,18041,18042,18043,18044,18045,18046,18047,18048,18049,18050,18051,18052,18053,18054,18055,18056,18057,18058,18059,18060,18061,18062,18063,18064,18065,18066,18067,18068,18069,18070,18071,18072,18073,18074,18075,18076,20394,18078,18079,18080,18081,20422,20092,20043,20043,20043,20043,20082,20082,20082,20082,20082,20082,20082,20082,20082,20082,20082,20082,20082,
18101,18102,18103,18104,18105,20086,20082,20082,20082,20083,20082,20083,20043,20043,20043,20043,20081,20082,20082,20082,20082,20082,20082,20082,20082,20082,20082,20390,20391,20390,20391,20390,20391,20390,20391,20390,20391,20390,20391,20390,20391,20390,20391,20390,20390,20391,20390,20391,20390,20391,20390,20391,20390,20391,20390,20391,20280,20280,20280,20391,20390,20391,20390,20390,20391,20390,20391,20390,20391,20390,20391,20390,20391,20390,20390,20391,20390,20391,20390,20391,20390,20390,20092,20043,20043,20043,20043,20082,20082,20082,20082,20082,20082,20082,20082,20082,20082,20082,20082,20082,
18201,18202,18203,18204,18205,20086,20082,20082,20082,20083,20082,20083,20043,20043,20043,20043,20081,20082,20082,20082,20082,20082,20082,20082,20082,20082,20082,20422,20423,20422,20423,20422,20423,20422,20423,20422,20423,20422,20423,20422,20423,20422,20423,20422,20422,20423,20422,20423,20422,20423,20422,20423,20422,20423,20422,20423,20280,20280,20280,20423,20422,20423,20422,20422,20423,20422,20423,20422,20423,20422,20423,20422,20423,20422,20422,20423,20422,20423,20422,20423,20422,20422,20092,20043,20043,20043,20043,20082,20082,20082,20082,20082,20082,20082,20082,20082,20082,20082,20082,20082,
18301,18302,18303,18304,18305,20086,20082,20082,20082,20083,20082,20083,20043,20043,20043,20043,20081,20082,20082,20082,20082,20082,20082,20082,20082,20082,20082,18328,18329,18330,18331,18332,18333,18334,18335,18336,18337,18338,18339,18340,18341,18342,18343,18344,18345,18346,18347,18348,18349,18350,18351,18352,18353,18354,18355,18356,20248,20248,20248,20248,18361,18362,18363,18364,18365,18366,18367,18368,18369,18370,18371,18372,18373,18374,18375,18376,18377,18378,18379,18380,18381,18382,20092,20043,20043,20043,20043,20082,20082,20082,20082,20082,20082,20082,20082,20082,20082,20082,20082,20082,
18401,18402,18403,18404,18405,20106,20107,20107,20107,20107,20107,20107,20107,20107,20107,20107,20107,20107,20107,20107,20107,20107,20107,20107,20107,20107,20107,20107,20734,20734,20734,20734,20734,20734,20734,20734,20734,20734,20734,20734,20734,20734,20734,20734,20734,20734,20734,20734,20734,20734,20734,20734,20734,20734,20734,2147503799,20248,20248,20248,20151,20734,20734,20734,20734,20734,20734,20734,20734,20734,20734,20734,20734,20734,20734,20734,20734,20734,20734,20734,20734,20734,20091,20092,20043,20043,20043,20043,20082,20082,20082,20082,20082,20082,20082,20082,20082,20082,20082,20082,20082,
18501,18502,18503,18504,18505,18506,18507,18508,18509,18510,20042,20042,20107,20107,20042,20042,20042,20042,20042,20042,20042,20042,20042,18524,18525,18526,18527,18528,20734,20734,20734,20734,20734,20734,20734,20734,20734,20734,20734,20734,20734,20734,20734,20734,20734,20734,20734,20734,20734,20734,20734,20734,20734,20734,20734,20248,20248,20248,20248,20248,20734,20734,20734,20734,20734,20734,20734,20734,20734,20734,20734,20734,20734,20734,20734,20734,20734,20734,20734,20734,20734,20091,20092,20043,20043,20043,20043,20082,20082,20082,20082,20082,20082,20082,20082,20082,20082,20082,20082,20082,
18601,18602,18603,18604,18605,18606,18607,18608,18609,18610,20042,20042,20042,20042,20042,20042,20042,20042,20042,20042,20042,20042,20042,18624,18625,18626,18627,18628,20734,20734,20734,20734,20734,20734,20734,20734,20734,20734,20734,20734,20734,20734,20734,20734,20734,20734,20734,20734,20734,20734,20734,20734,20734,20734,20734,20248,20248,20248,20248,20248,20734,20734,20734,20734,20734,20734,20734,20734,20734,20734,20734,20734,20734,20734,20734,20734,20734,20734,20734,20734,20734,20091,20092,20043,20043,20043,20043,20082,20082,20082,20082,20082,20082,20082,20082,20082,20082,20082,20082,20082,
18701,18702,18703,18704,18705,18706,18707,18708,18709,18710,20042,20042,20042,20042,20042,20042,20042,20042,20042,20042,20042,20042,20042,18724,18725,18726,18727,18728,20734,20734,20734,20734,20734,20734,20734,20734,20734,20734,20734,20734,20734,20734,20734,20734,20734,20734,20734,20734,20734,20734,20734,20734,20734,20734,20734,20248,20248,20248,20248,20248,20734,20734,20734,20734,20734,20734,20734,20734,20734,20734,20734,20734,20734,20734,20734,20734,20734,20734,20734,20734,20734,20091,20092,20043,20043,20043,20043,20082,20082,20082,20082,20082,20082,20082,20082,20082,20082,20082,20082,20082,
18801,18802,18803,18804,20066,20066,20067,20067,20067,20067,20067,20067,20043,20043,20043,20043,20067,20072,20072,20072,20072,20072,20072,20072,20072,20072,20072,20072,20072,20072,20072,20072,20072,20072,20072,20072,20072,20072,20072,20072,20072,20072,20072,20072,20072,20072,20072,20067,20067,20067,20067,20067,20067,20067,20067,20043,20043,20043,20043,20043,20043,20043,20043,20043,20043,20043,20043,20043,20043,20043,20043,20043,20043,20043,20043,20043,20043,20043,20043,20043,20043,20043,20092,20043,20043,20043,20043,20082,20082,20082,20082,20082,20082,20082,20082,20082,20082,20082,20082,20082,
18901,18902,18903,18904,18905,20086,20082,20082,20082,20082,20043,20043,20043,20043,20043,20043,20043,20043,20043,20043,20043,20043,20043,20043,20043,20043,20043,20043,20043,20043,20043,20043,20043,20043,20043,20043,20043,20043,20043,20043,20043,20043,20043,20043,20043,20043,20043,20043,20043,20043,20043,20043,20043,20043,20043,20043,20043,20043,20043,20043,20043,20043,20043,20043,20043,20043,20043,20043,20043,20043,20043,20043,20043,20043,20043,20043,20043,20043,20043,20043,20043,20043,20043,20043,20043,20043,20043,20082,20082,20082,20082,20082,20082,20082,20082,20082,20082,20082,20082,20082,
19001,19002,19003,19004,19005,20086,20082,20082,20082,20082,20043,20043,20043,20043,20043,20043,20043,20043,20043,20043,20043,20043,20043,20043,20043,20043,20043,20043,20043,20043,20043,20043,20043,20043,20043,20043,20043,20043,20043,20043,20043,20043,20043,20043,20043,20043,20043,20043,20043,20043,20043,20043,20043,20043,20043,20043,20043,20043,20043,20043,20043,20043,20043,20043,20043,20043,20043,20043,20043,20043,20043,20043,20043,20043,20043,20043,20043,20043,20043,20043,20043,20043,20043,20043,20043,20043,20043,20082,20082,20082,20082,20082,20082,20082,20082,20082,20082,20082,20082,20082,
19101,19102,19103,19104,19105,20086,20082,20082,20082,20082,20043,20043,20043,20043,20043,20043,20043,20043,20043,20043,20043,20043,20043,20043,20043,20043,20043,20043,20043,20043,20043,20043,20043,20043,20043,20043,20043,20043,20043,20043,20043,20043,20043,20043,20043,20043,20043,20043,20043,20043,20043,20043,20043,20043,20043,20043,20043,20043,20043,20043,20043,20043,20043,20043,20043,20043,20043,20043,20043,20043,20043,20043,20043,20043,20043,20043,20043,20043,20043,20043,20043,20043,20043,20043,20043,20043,20043,20082,20082,20082,20082,20082,20082,20082,20082,20082,20082,20082,20082,20082,
19201,19202,19203,19204,19205,20086,20082,20082,20082,20082,20082,20082,20062,20062,20062,20062,20062,20062,20062,20062,20062,20062,20062,20062,20062,20062,20062,20062,20062,20062,19231,19232,20062,20062,20062,20062,20062,20062,20062,20062,20062,20062,20062,20062,20062,20062,20062,20062,20062,20062,20062,20062,20062,20062,20062,20062,20062,20062,20062,20062,20062,20062,20062,20062,20062,20062,20062,20062,20062,20062,20062,20062,20062,20062,20062,20062,20062,20062,20062,20062,20062,20062,20062,20062,20062,20062,20062,20082,20082,20082,20082,20082,20082,20082,20082,20082,20082,20082,20082,20082,
19301,19302,19303,19304,19305,20086,20082,20082,20082,20082,20082,20082,20082,20082,20082,20082,20082,20082,20082,20082,20082,20082,20082,20082,20082,20082,20082,20082,20082,20082,20082,20082,20082,20082,20082,20082,20082,20082,20082,20082,20082,20082,20082,20082,20082,20082,20082,20082,20082,20082,20082,20082,20082,20082,20082,20082,20082,20082,20082,20082,20082,20082,20082,20082,20082,20082,20082,20082,20082,20082,20082,20082,20082,20082,20082,20082,20082,20082,20082,20082,20082,20082,20082,20082,20082,20082,20082,20082,20082,20082,20082,20082,20082,20082,20082,20082,20082,20082,20082,20082,
19401,19402,19403,19404,19405,20086,20082,20082,20082,20082,20082,20082,20082,20082,20082,20082,20082,20082,20082,20082,20082,20082,20082,20082,20082,20082,20082,20082,20082,20082,20082,20082,20082,20082,20082,20082,20082,20082,20082,20082,20082,20082,20082,20082,20082,20082,20082,20082,20082,20082,20082,20082,20082,20082,20082,20082,20082,20082,20082,20082,20082,20082,20082,20082,20082,20082,20082,20082,20082,20082,20082,20082,20082,20082,20082,20082,20082,20082,20082,20082,20082,20082,20082,20082,20082,20082,20082,20082,20082,20082,20082,20082,20082,20082,20082,20082,20082,20082,20082,20082,
19501,19502,19503,19504,19505,20086,20082,20082,20082,20082,20082,20082,20082,20082,20082,20082,20082,20082,20082,20082,20082,20082,20082,20082,20082,20082,20082,20082,20082,20082,20082,20082,20082,20082,20082,20082,20082,20082,20082,20082,20082,20082,20082,20082,20082,20082,20082,20082,20082,20082,20082,20082,20082,20082,20082,20082,20082,20082,20082,20082,20082,20082,20082,20082,20082,20082,20082,20082,20082,20082,20082,20082,20082,20082,20082,20082,20082,20082,20082,20082,20082,20082,20082,20082,20082,20082,20082,20082,20082,20082,20082,20082,20082,20082,20082,20082,20082,20082,20082,20082,
19601,19602,19603,19604,19605,20086,20082,20082,20082,20082,20082,20082,20082,20082,20082,20082,20082,20082,20082,20082,20082,20082,20082,20082,20082,20082,20082,20082,20082,20082,20082,20082,20082,20082,20082,20082,20082,20082,20082,20082,20082,20082,20082,20082,20082,20082,20082,20082,20082,20082,20082,20082,20082,20082,20082,20082,20082,20082,20082,20082,20082,20082,20082,20082,20082,20082,20082,20082,20082,20082,20082,20082,20082,20082,20082,20082,20082,20082,20082,20082,20082,20082,20082,20082,20082,20082,20082,20082,20082,20082,20082,20082,20082,20082,20082,20082,20082,20082,20082,20082,
19701,19702,19703,19704,19705,20086,20082,20082,20082,20082,20082,20082,20082,20082,20082,20082,20082,20082,20082,20082,20082,20082,20082,20082,20082,20082,20082,20082,20082,20082,20082,20082,20082,20082,20082,20082,20082,20082,20082,20082,20082,20082,20082,20082,20082,20082,20082,20082,20082,20082,20082,20082,20082,20082,20082,20082,20082,20082,20082,20082,20082,20082,20082,20082,20082,20082,20082,20082,20082,20082,20082,20082,20082,20082,20082,20082,20082,20082,20082,20082,20082,20082,20082,20082,20082,20082,20082,20082,20082,20082,20082,20082,20082,20082,20082,20082,20082,20082,20082,20082,
19801,19802,19803,19804,19805,20086,20082,20082,20082,20082,20082,20082,20082,20082,20082,20082,20082,20082,20082,20082,20082,20082,20082,20082,20082,20082,20082,20082,20082,20082,20082,20082,20082,20082,20082,20082,20082,20082,20082,20082,20082,20082,20082,20082,20082,20082,20082,20082,20082,20082,20082,20082,20082,20082,20082,20082,20082,20082,20082,20082,20082,20082,20082,20082,20082,20082,20082,20082,20082,20082,20082,20082,20082,20082,20082,20082,20082,20082,20082,20082,20082,20082,20082,20082,20082,20082,20082,20082,20082,20082,20082,20082,20082,20082,20082,20082,20082,20082,20082,20082,
19901,19902,19903,19904,19905,19906,19907,19908,19909,19910,19911,19912,19913,19914,19915,19916,19917,19918,19919,19920,19921,19922,19923,19924,19925,19926,19927,19928,19929,19930,19931,19932,19933,19934,19935,19936,19937,19938,19939,19940,19941,19942,19943,19944,19945,19946,19947,19948,19949,19950,19951,19952,19953,19954,19955,19956,19957,19958,19959,19960,19961,19962,19963,19964,19965,19966,19967,19968,19969,19970,19971,19972,19973,19974,19975,19976,19977,19978,19979,19980,19981,19982,19983,19984,19985,19986,19987,19988,19989,19990,19991,19992,19993,19994,19995,19996,19997,19998,19999,20000
</data>
 </layer>
 <layer id="2" name="walls" width="100" height="100">
  <data encoding="csv">
20390,20265,20266,20267,20268,20269,20265,20266,20267,20268,20269,20265,20266,20267,20268,20269,20265,20266,20267,20268,20269,20265,20266,20267,20268,20269,20265,20266,20267,20268,20269,20265,20266,20267,20268,20269,20265,20266,20267,20268,20269,20265,20266,20267,20268,20269,0,0,0,20265,20266,20267,20268,20269,20265,20266,20267,20268,20269,20265,20266,20267,20268,20269,20265,20266,20267,20268,20269,20265,20266,20267,20268,20269,20265,20266,20267,20268,20269,20265,20266,20267,20268,20269,20265,20266,20267,20268,20269,20265,20266,20267,20268,20269,20265,20266,20267,20268,20269,20391,
20422,20297,20298,20299,20300,20301,20297,20298,20299,20300,20301,20297,20298,20299,20300,20301,20297,20298,20299,20300,20301,20297,20298,20299,20300,20301,20297,20298,20299,20300,20301,20297,20298,20299,20300,20301,20297,20298,20299,20300,20301,20297,20298,20299,20300,20301,0,0,0,20297,20298,20299,20300,20301,20297,20298,20299,20300,20301,20297,20298,20299,20300,20301,20297,20298,20299,20300,20301,20297,20298,20299,20300,20301,20297,20298,20299,20300,20301,20297,20298,20299,20300,20301,20297,20298,20299,20300,20301,20297,20298,20299,20300,20301,20297,20298,20299,20300,20301,20423,
20390,20329,20330,20331,20332,20333,20329,20330,20331,20332,20333,20329,20330,20331,20332,20333,20329,20330,20331,20332,20333,20329,20330,20331,20332,20333,20329,20330,20331,20332,20333,20329,20330,20331,20332,20333,20329,20330,20331,20332,20333,20329,20330,20331,20332,20333,0,0,0,20329,20330,20331,20332,20333,20329,20330,20331,20332,20333,20329,20330,20331,20332,20333,20329,20330,20331,20332,20333,20329,20330,20331,20332,20333,20329,20330,20331,20332,20333,20329,20330,20331,20332,20333,20329,20330,20331,20332,20333,20329,20330,20331,20332,20333,20329,20330,20331,20332,20333,20391,
20422,0,0,0,0,20042,20042,20042,20042,20042,0,0,0,0,0,0,0,0,0,0,0,0,0,0,0,0,0,0,0,0,0,0,0,0,0,0,0,0,0,0,0,0,0,0,0,0,0,0,0,0,20042,20042,20042,20042,20042,20042,20042,20042,20042,20042,20042,20042,20042,20042,20042,20042,20042,20042,20042,20042,20042,20042,20042,20042,20042,20042,20042,20042,20042,20042,20042,20042,20042,20042,20042,20042,20042,20042,20042,20042,20042,20042,20042,20042,20042,20042,20042,20042,20042,20423,
20390,20001,0,20022,0,20042,20042,20042,20042,20042,0,0,0,0,0,0,0,0,0,0,0,0,0,0,0,0,0,0,0,0,0,0,0,0,0,0,0,0,0,0,0,0,0,0,0,0,0,0,0,0,20042,20042,20042,20042,20042,20042,20042,20042,20042,20042,20042,20042,20042,20042,20042,20042,20042,20042,20042,20042,20042,20042,20042,20042,20042,20042,20042,20042,20042,20042,20042,20042,20042,20042,20042,20042,20042,20042,20042,20042,20042,20042,20042,20042,20042,20042,20042,20042,20042,20391,
20422,20021,0,0,0,20042,20042,20042,20042,20042,0,0,0,0,0,0,0,0,0,0,0,0,0,0,0,0,0,0,0,0,0,0,0,0,0,0,0,0,0,0,0,0,0,0,0,0,0,0,0,0,20042,20042,20042,20042,20042,20042,20042,20042,20042,20042,20042,20042,20042,20042,20042,20042,20042,20042,20042,20042,20042,20042,20042,20042,20042,20042,20042,20042,20042,20042,20042,20042,20042,20042,20042,20042,20042,20042,20042,20042,20042,20042,20042,20042,20042,20042,20042,20042,20042,20423,
20390,0,0,0,0,20042,20042,20042,20042,20042,0,0,0,0,0,0,0,0,0,0,0,0,0,0,0,0,0,0,0,0,0,0,0,0,0,0,0,0,0,0,0,0,0,0,0,0,0,0,0,0,20042,20042,20042,20042,20042,20042,20042,20042,20042,20042,20042,20042,20042,20042,20042,20042,20042,20042,20042,20042,20042,20042,20042,20042,20042,20042,20042,20042,20042,20042,20042,20042,20042,20042,20042,20042,20042,20042,20042,20042,20042,20042,20042,20042,20042,20042,20042,20042,20042,20391,
20422,0,0,0,0,20042,20042,20042,20042,20042,0,0,0,20001,0,0,20001,0,0,20001,0,0,20001,0,0,20001,0,0,20001,0,0,20001,0,0,20001,0,0,20001,0,0,20001,0,0,20001,0,20173,0,0,0,2147503821,20067,20067,20067,20067,20067,20067,20067,20067,20067,20067,20067,20067,20067,20067,20067,20067,20067,20067,20067,20067,20067,20067,20067,20067,20067,20067,20067,20067,20067,20067,20067,20067,20067,20067,20067,20067,20067,20067,20067,20067,20067,20067,20067,20067,20067,20067,20067,20067,20067,20423,
20390,0,0,0,0,20042,20042,20042,20042,20042,0,0,0,20021,0,0,20021,0,0,20021,0,0,20021,0,0,20021,0,0,20021,0,0,20021,0,0,20021,0,0,20021,0,0,20021,0,0,20021,1610633404,2147503729,0,0,0,0,1610633404,0,0,0,0,0,0,0,0,0,0,0,0,0,0,0,0,0,0,0,0,0,0,0,0,0,0,0,0,0,0,0,0,0,0,0,0,0,0,0,0,0,0,0,0,0,0,0,0,20391,
20422,0,20023,0,0,20042,20042,20042,20042,20042,20086,0,0,0,20126,20102,20102,20102,20102,20102,20102,20102,20102,20102,20102,20102,20102,20102,20102,20102,20102,20102,20102,20102,20102,20102,20102,20102,20102,20102,20102,20102,20102,20102,0,0,0,0,0,0,0,20102,20102,20102,20102,20102,20102,20102,20102,20102,20102,20102,20102,20102,20102,20102,20102,20102,20102,20102,20102,20102,20102,20102,20102,20102,20102,20102,20102,20102,20102,20102,20102,20102,20102,20102,20102,20128,0,0,0,0,0,0,0,0,0,0,0,20423,
20390,0,0,0,0,20042,20042,20042,20042,20042,20086,0,0,0,20083,0,0,0,0,0,0,0,0,0,0,0,0,0,0,0,0,0,0,0,0,0,0,0,0,0,0,0,0,0,0,0,0,0,0,0,0,0,0,0,0,0,0,0,0,0,0,0,0,0,0,0,0,0,0,0,0,0,0,0,0,0,0,0,0,0,0,0,0,0,0,0,0,20081,0,0,0,0,0,0,0,0,0,0,0,20391,
20422,0,0,0,0,20042,20042,20042,20042,20042,20086,20023,0,0,20083,0,0,0,0,0,0,0,0,0,0,0,0,0,0,0,0,0,0,0,0,0,0,0,0,0,0,0,0,0,0,0,0,0,0,0,0,0,0,0,0,0,0,0,0,0,0,0,0,0,0,0,0,0,0,0,0,0,0,0,0,0,0,0,0,0,0,0,0,0,0,0,0,20081,0,0,0,0,0,0,0,0,0,0,0,20423,
20390,0,20022,0,0,20042,20042,20042,20042,20042,20086,0,0,0,20083,0,0,0,0,0,0,0,0,0,0,0,0,0,0,0,0,0,0,0,0,0,0,0,0,0,0,0,0,0,0,0,0,0,0,0,0,0,0,0,0,0,0,0,0,0,0,0,0,0,0,0,0,0,0,0,0,0,0,0,0,0,0,0,0,0,0,0,0,0,0,0,0,20081,0,0,0,0,0,0,0,0,0,0,0,20391,
20422,0,0,0,0,20042,20042,20042,20042,20042,20086,0,0,0,20083,0,0,0,0,20061,20062,20062,20062,20062,20062,20062,20062,20390,20265,20266,20267,20268,20269,20265,20266,20267,20268,20269,20265,20266,20267,20268,20269,20265,20266,20267,20268,20269,20265,20266,20267,20268,20269,20265,20266,20267,20268,20269,20265,20266,20267,20268,20269,20265,20266,20267,20268,20269,20265,20266,20267,20268,20269,20265,20390,20267,20268,20269,20265,20266,20267,0,0,0,0,0,0,20081,0,0,0,0,0,0,0,0,0,0,0,20423,
20390,0,0,0,0,20042,20042,20042,20042,20042,20086,20022,0,0,20083,0,0,0,0,20081,20001,0,0,0,0,0,0,20422,20297,20298,20299,20300,20301,20297,20298,20299,20300,20301,20297,20298,20299,20300,20301,20297,20298,20299,20300,20301,20297,20298,20299,20300,20301,20297,20298,20299,20300,20301,20297,20298,20299,20300,20301,20297,20298,20299,20300,20301,20297,20298,20299,20300,20301,20297,20422,20299,20300,20301,20297,20298,20299,0,0,0,0,0,0,20081,0,0,0,0,0,0,0,0,0,20001,0,20391,
20422,0,0,0,0,20042,20042,20042,20042,20042,20086,0,0,0,20083,0,0,0,0,20081,20021,0,0,0,0,0,0,20390,20329,20330,20331,20329,20330,20331,20332,20333,20333,20333,20329,20330,20331,20332,20333,20329,20330,20331,20332,20333,20329,20330,20331,20332,20333,20329,20330,20331,20332,20333,20329,20330,20331,20332,20333,20329,20330,20331,20332,20333,20329,20330,20331,20330,20331,20329,20390,20331,20332,20333,20329,20330,20331,0,0,0,0,0,0,20081,0,0,0,0,0,0,0,0,0,20021,0,20423,
20390,0,0,0,0,20042,20042,20042,20042,20042,20086,0,0,0,20083,0,0,0,0,20081,0,0,0,0,20001,0,0,20422,20368,0,0,0,0,0,0,0,0,0,20613,0,0,0,0,0,0,0,0,0,0,0,0,0,0,0,0,0,0,0,0,0,0,0,0,0,0,0,0,0,0,0,0,20226,20227,0,0,0,0,0,0,0,0,0,0,0,0,0,0,20081,0,0,0,0,0,0,0,0,0,0,0,20391,
20422,0,0,0,0,20042,20042,20042,20042,20042,20086,0,0,20005,20083,0,0,0,0,20081,20023,0,0,0,20021,0,0,20390,20400,0,0,0,0,0,0,0,0,0,20645,0,0,0,0,0,0,0,0,0,0,0,0,0,0,0,0,0,0,0,0,0,0,0,0,0,0,0,0,0,0,0,0,20258,20259,0,0,0,0,0,0,0,0,0,0,0,0,0,0,20081,0,0,0,0,0,0,0,0,0,0,0,20423,
20390,0,20023,0,0,20042,20042,20042,20042,20042,20086,0,0,0,20083,0,0,0,0,20081,0,20022,0,0,0,0,0,20422,20368,0,0,0,0,0,0,0,0,0,20677,0,0,0,0,0,0,0,0,0,0,0,0,0,0,0,0,0,0,0,0,0,0,0,0,0,0,0,0,0,0,0,0,20194,20195,0,0,0,0,0,0,0,0,0,0,0,0,0,0,20081,0,0,0,0,0,0,0,0,0,0,0,20391,
20422,0,0,0,0,20042,20042,20042,20042,20042,20086,0,0,0,20083,0,0,0,0,20081,0,0,0,0,0,0,0,20390,20400,0,0,0,0,0,0,0,0,0,20613,0,0,0,0,0,0,0,0,0,0,0,0,0,0,0,0,0,0,0,0,0,0,0,0,0,0,0,0,0,0,0,0,20226,20227,0,0,0,0,0,0,0,0,0,0,0,0,0,0,20081,0,0,0,0,0,0,0,0,0,0,0,20423,
20390,0,0,20001,0,20042,20042,20042,20042,20042,20086,0,0,0,20083,0,0,0,0,20081,0,0,0,0,0,0,0,20422,20368,0,0,0,0,0,0,0,0,0,20645,0,0,0,0,0,0,0,0,0,0,0,0,0,0,0,0,0,0,0,0,0,0,0,0,0,0,0,0,0,0,0,0,20258,20259,0,0,0,0,0,0,0,0,0,0,0,0,0,0,20081,0,0,0,0,0,0,0,0,0,0,0,20391,
20422,0,0,20021,0,20042,20042,20042,20042,20042,20086,0,0,0,20083,0,0,0,0,20081,0,20001,0,0,0,0,0,20390,20400,0,0,0,0,0,0,0,0,0,20677,0,0,0,0,0,0,0,0,0,0,0,0,0,0,0,0,0,0,0,0,0,0,0,0,0,0,0,0,0,0,0,0,20194,20195,0,0,0,0,0,0,0,0,0,0,0,0,0,0,20081,0,0,0,0,0,0,0,0,0,0,0,20423,
20390,0,0,0,0,20042,20042,20042,20042,20042,20086,0,0,0,20083,0,0,0,0,20081,0,20021,0,0,0,0,0,20422,20368,0,0,0,0,0,0,0,0,0,20613,0,0,0,0,0,0,0,0,0,0,0,0,0,0,0,0,0,0,0,0,0,0,0,0,0,0,0,0,0,0,0,0,20226,20227,0,0,0,0,0,0,0,0,0,0,0,0,0,0,20081,0,0,0,0,0,0,0,0,0,0,0,20391,
20422,0,0,0,0,20042,20042,20042,20042,20042,20086,20023,0,0,20083,0,0,0,0,20081,0,0,0,0,0,0,0,20390,20400,0,0,0,0,0,0,0,0,0,20645,0,0,0,0,0,0,0,0,0,0,0,0,0,0,0,0,0,0,0,0,0,0,0,0,0,0,0,0,0,0,0,0,20258,20259,0,0,20394,20394,20394,20394,20394,20394,0,0,0,0,0,0,20081,0,0,0,0,0,0,0,0,0,0,0,20423,
20390,0,0,0,0,20042,20042,20042,20042,20042,20086,0,0,0,20083,0,0,0,0,20081,0,0,0,0,0,0,0,20422,20368,0,0,0,0,20335,20336,20303,20304,0,20677,0,0,0,0,0,0,0,0,0,0,0,0,0,0,0,0,0,0,0,0,20335,20336,20303,20304,0,0,0,0,0,0,0,0,20194,20195,0,0,0,0,0,0,0,0,0,0,0,0,0,0,20081,0,20001,0,0,0,0,0,0,0,0,0,20391,
20422,0,0,0,0,20042,20042,20042,20042,20042,20086,0,0,0,20083,0,0,0,0,20081,0,0,0,0,0,0,0,20390,20400,0,0,0,0,0,0,0,0,0,20613,0,0,0,0,0,0,0,0,0,0,0,0,0,0,0,0,0,0,0,0,0,0,0,0,0,0,0,0,0,0,0,0,20226,20227,0,0,0,0,0,0,0,0,0,0,0,0,0,0,20081,0,20021,0,0,0,0,0,0,0,0,0,20423,
20390,0,0,0,0,20042,20042,20042,20042,20042,20086,0,0,0,20083,0,0,0,0,20081,0,0,0,0,20005,0,0,20422,20368,0,0,0,0,0,0,0,0,0,20645,0,0,0,0,0,0,0,0,0,0,0,0,0,0,0,0,0,0,0,0,0,0,0,0,0,0,0,0,0,0,0,0,20258,20259,0,0,0,0,0,0,0,0,0,0,0,0,0,0,20081,0,0,0,0,0,0,0,0,0,0,0,20391,
20422,0,0,0,0,20042,20042,20042,20042,20042,20086,0,0,0,20083,0,0,0,0,20081,0,0,0,0,0,0,0,20390,20400,0,0,0,0,0,0,0,0,0,20677,0,0,0,0,0,0,0,0,0,0,0,0,0,0,0,0,0,0,0,0,0,0,0,0,0,0,0,0,0,0,0,0,20194,20195,0,0,0,0,0,0,0,0,0,0,0,0,0,0,20081,0,0,0,0,0,0,0,0,0,0,0,20423,
20390,20022,0,0,0,20042,20042,20042,20042,20042,20086,0,0,0,20083,0,0,0,0,20081,0,0,0,0,0,0,0,20422,20368,0,0,0,0,0,0,0,0,0,20613,0,0,0,0,0,0,0,0,0,0,0,0,0,0,0,0,0,0,0,0,0,0,0,0,0,0,0,0,0,0,0,0,20226,20227,0,0,0,0,0,0,0,0,0,0,0,0,0,0,20081,0,0,0,0,0,0,0,0,0,0,0,20391,
20422,0,0,0,0,20042,20042,20042,20042,20042,20086,0,0,0,20083,0,0,0,0,20081,0,0,0,0,0,0,0,20390,20400,0,0,0,0,0,0,0,0,0,20645,0,0,0,0,0,0,0,0,0,0,0,0,0,0,0,0,0,0,0,0,0,0,0,0,0,0,0,0,0,0,0,0,20258,20259,0,0,0,0,0,0,0,0,0,0,0,0,0,0,20081,0,0,0,0,0,0,0,0,0,0,0,20423,
20390,0,0,0,0,20042,20042,20042,20042,20042,20086,0,0,20001,20083,0,0,0,0,20081,0,0,0,0,0,0,0,20422,20368,0,0,0,0,0,0,0,0,0,20677,0,0,0,0,0,0,0,0,0,0,0,0,0,0,0,0,0,0,0,0,0,0,0,0,0,0,0,0,0,0,0,0,20194,20195,0,0,0,0,0,0,0,0,0,0,0,0,0,0,20081,0,0,0,0,0,0,0,0,0,0,0,20391,
20422,0,0,0,0,20042,20042,20042,20042,20042,20086,0,0,20021,20083,0,0,0,0,20081,0,0,0,0,0,0,0,20390,20400,0,0,0,0,0,0,0,0,0,20613,0,0,0,0,0,0,0,0,0,0,0,0,0,0,0,0,0,0,0,0,0,0,0,0,0,0,0,0,0,0,0,0,20226,20227,0,0,0,0,0,0,0,0,0,0,0,0,0,0,20081,0,0,0,0,0,0,0,0,0,0,0,20423,
20390,0,0,0,0,20042,20042,20042,20042,20042,20086,0,0,0,20083,0,0,0,0,20081,0,0,0,20001,0,0,0,20422,20368,0,0,0,0,0,0,0,0,0,20645,0,0,0,0,0,0,0,0,0,0,0,0,0,0,0,0,0,0,0,0,0,0,0,0,0,0,0,0,0,0,0,0,20258,20259,0,0,0,0,0,0,0,0,0,0,0,0,0,0,20081,0,0,0,0,0,0,0,0,0,0,0,20391,
20422,0,0,0,0,20042,20042,20042,20042,20042,20086,0,0,0,20083,0,0,0,0,20081,0,0,0,20021,0,0,0,20390,20400,0,0,0,0,0,0,0,0,0,20677,0,0,0,0,0,0,0,0,0,0,0,0,0,0,0,0,0,0,0,0,0,0,0,0,0,0,0,0,0,0,0,0,20194,20195,0,0,0,0,0,0,0,0,0,0,0,0,0,0,20081,0,0,0,0,0,0,0,0,0,0,0,20423,
20390,20001,0,0,0,20042,20042,20042,20042,20042,20086,0,0,0,20083,0,0,0,0,20081,0,0,0,0,0,0,0,20422,0,0,0,0,0,0,0,0,0,0,0,0,0,0,0,0,0,0,0,0,0,0,0,0,0,0,0,0,0,0,0,0,0,0,0,0,0,0,0,0,0,0,0,20226,20227,0,0,0,0,0,0,0,0,0,0,0,0,0,0,20081,0,0,0,0,0,0,0,0,0,0,0,20391,
20422,20021,0,0,0,20042,20042,20042,20042,20042,20086,0,0,0,20083,0,0,0,0,20081,0,0,0,0,0,0,0,20390,0,0,0,0,0,0,0,0,0,0,0,0,0,0,0,0,0,0,0,0,0,0,0,0,0,0,0,0,0,0,0,0,0,0,20394,20394,0,0,0,0,0,0,0,20258,20259,0,0,0,0,0,0,0,0,0,0,0,0,0,0,20081,0,0,0,0,0,0,0,0,0,0,0,20423,
20390,0,0,0,0,20042,20042,20042,20042,20042,20086,0,0,0,20083,0,0,0,0,20081,0,20001,0,0,0,0,0,20422,0,0,0,0,0,0,0,0,0,0,0,0,0,0,0,0,0,0,0,0,0,0,0,0,0,0,0,0,0,0,0,0,0,0,0,20394,0,0,0,0,0,0,0,20194,20195,0,0,20394,20394,0,0,0,0,0,0,0,0,0,0,20081,0,0,0,0,0,0,0,0,0,0,0,20391,
20422,0,0,0,0,20042,20042,20042,20042,20042,20086,0,0,0,20083,0,0,0,0,20081,0,20021,0,0,0,0,0,20422,0,0,0,0,0,0,0,0,0,0,0,0,0,0,0,0,0,0,0,0,0,0,0,0,0,0,0,0,0,0,0,0,0,0,0,0,0,0,0,0,0,0,0,20226,20227,0,0,20394,20394,0,0,0,0,0,0,0,0,0,0,20081,0,0,0,20001,0,0,0,0,0,0,0,20423,
20390,0,20001,0,0,20042,20042,20042,20042,20042,20086,0,0,0,20083,0,0,0,0,20081,0,0,0,0,0,20023,0,20390,0,0,0,0,0,0,0,0,0,0,0,0,0,0,0,0,0,0,0,0,0,0,0,0,0,0,0,0,0,0,0,0,0,0,0,0,0,0,0,0,0,0,0,20258,20259,0,0,0,0,0,0,0,0,0,0,0,0,0,0,20081,0,0,0,20021,0,0,0,0,0,0,0,20391,
20422,20005,20021,20005,20127,20072,20072,20072,20072,20072,20127,20102,20102,20102,20103,0,0,0,0,20101,20102,20102,20102,20102,20102,20102,20102,20422,20651,20652,20651,20652,20651,20652,20651,20652,20651,20652,0,0,0,0,0,0,0,0,0,0,0,0,0,0,0,0,0,0,0,0,0,0,0,0,0,0,0,0,0,0,0,0,0,20194,20195,0,0,0,0,0,0,0,0,0,0,0,0,0,0,20081,0,0,0,0,0,0,0,0,0,0,0,20423,
20390,0,0,0,0,0,0,0,0,0,0,0,0,0,0,0,0,0,0,0,0,0,20127,20127,0,0,0,20390,20683,20684,20683,20684,20683,20684,20683,20684,20683,20684,0,0,0,0,0,0,0,0,0,0,0,0,0,0,0,0,0,0,0,0,0,0,0,0,0,0,0,0,0,0,0,0,0,20226,20227,0,0,0,0,0,0,0,0,0,0,0,0,0,0,20081,0,0,0,0,0,0,0,0,0,0,0,20391,
20422,0,0,0,0,0,0,0,0,0,0,0,0,0,0,0,0,0,0,0,0,0,0,0,0,0,0,20422,0,0,0,0,0,0,0,0,0,0,0,0,0,0,0,0,0,0,0,0,0,0,0,0,0,0,0,0,0,0,0,0,0,0,0,0,0,0,0,0,0,0,0,20258,20259,0,0,0,0,0,0,0,0,0,0,0,0,0,0,20081,0,0,0,0,0,0,0,0,0,0,0,20423,
20390,0,20001,0,0,0,0,0,0,0,0,20166,0,0,0,0,0,0,0,0,0,0,0,0,0,0,0,20390,0,0,0,0,0,0,0,0,0,0,0,0,0,0,0,0,0,0,0,0,0,0,0,0,0,0,0,0,0,0,0,0,0,0,0,0,0,0,0,0,0,0,0,20194,20195,0,0,0,0,0,0,0,0,0,0,0,0,0,0,20081,0,0,0,0,0,0,0,0,0,0,0,20391,
20422,20005,20021,20005,1073761951,20112,20112,20112,20112,20112,20167,20130,0,0,0,0,20129,20062,20062,20062,20062,20062,20062,20062,20062,20062,20062,20390,0,0,0,0,0,0,0,0,0,0,0,0,0,0,20394,20394,0,0,0,0,0,0,0,0,0,0,0,0,0,0,0,0,0,0,0,0,0,0,0,0,0,0,0,20226,20227,0,0,0,0,0,0,0,0,0,0,0,0,0,0,20081,0,0,0,0,0,0,0,0,0,0,0,20423,
20390,0,0,0,0,20042,20042,20042,20042,20042,20086,20083,0,0,0,0,0,20708,20709,20710,0,0,0,0,0,0,0,20422,0,0,0,0,0,0,0,0,0,0,0,0,0,0,20394,20394,0,0,0,0,0,0,0,0,0,0,0,0,0,0,0,0,0,0,0,0,0,0,0,0,0,0,0,20258,20259,0,0,0,0,0,0,0,0,0,0,0,0,0,0,20081,0,0,0,0,0,0,0,0,0,0,0,20391,
20422,0,20023,0,0,20042,20042,20042,20042,20042,20086,20083,0,0,0,0,0,20728,20729,20730,0,0,0,0,0,0,0,20390,0,0,0,0,0,0,0,0,0,0,0,0,0,0,0,0,0,0,0,0,0,0,0,0,0,0,0,0,0,0,0,0,0,0,0,0,0,0,0,0,0,0,0,0,0,0,0,0,0,0,0,0,0,0,0,0,0,0,0,20081,0,0,0,0,0,0,0,0,0,0,0,20423,
20390,0,0,0,0,20042,20042,20042,20042,20042,20086,20083,0,0,0,0,0,20748,20749,20750,0,0,0,0,20001,0,0,20422,0,0,0,0,0,0,0,0,0,0,0,0,0,0,0,0,0,0,0,0,0,0,0,0,0,0,0,0,0,0,0,0,0,0,0,0,0,0,0,0,0,0,0,0,0,0,20390,0,0,0,0,0,0,0,0,0,0,0,0,20081,0,0,0,0,0,0,0,0,0,0,0,20391,
20422,0,0,0,0,20042,20042,20042,20042,20042,20086,20083,0,0,0,0,0,0,0,0,0,0,0,0,20021,0,0,20266,20265,20266,20267,20268,20265,20266,20267,20268,20265,20266,20267,20268,20265,20266,20267,20268,20265,20266,20267,20268,20265,20266,20267,20268,20265,20266,20267,20268,20265,20266,20267,0,20265,20266,20267,20268,0,0,20265,20266,20267,20268,20269,20265,20266,20267,20268,20269,20265,20266,20267,0,0,0,0,0,0,0,0,20081,0,0,0,0,0,0,0,0,0,0,0,20423,
20390,0,0,0,0,20042,20042,20042,20042,20042,20086,20083,0,0,0,0,0,0,0,0,20023,0,0,0,0,0,0,20298,20297,20298,20299,20300,20297,20298,20299,20300,20297,20298,20299,20300,20297,20298,20299,20300,20297,20298,20299,20300,20297,20298,20299,20300,20297,20298,20299,20300,20297,20298,20299,0,20297,20298,20299,20300,0,0,20297,20298,20299,20300,20301,20297,20298,20299,20300,20301,20297,20298,20299,0,0,0,0,0,0,0,0,20081,0,0,0,0,0,0,0,0,0,0,0,20391,
20422,20023,0,0,0,20042,20042,20042,20042,20042,20106,20146,20043,20043,20043,20043,20148,0,0,0,0,0,0,0,0,0,0,20330,20329,20330,20331,20332,20329,20330,20331,20332,20329,20330,20331,20332,20329,20330,20331,20332,20329,20330,20331,20332,20329,20330,20331,20332,20329,20330,20331,20332,20329,20330,20331,0,20329,20330,20331,20332,0,0,20329,20330,20331,20332,20333,20329,20330,20331,20332,20333,20329,20330,20331,0,0,0,0,0,0,0,0,20081,0,0,0,0,0,0,0,0,0,0,0,20423,
20390,20042,20042,20042,20042,20042,20042,20042,20042,20042,20042,20091,20043,20043,20043,20043,2147503739,20042,20042,20042,20042,20042,20042,20042,20042,20042,20042,20042,20042,20042,20042,20042,20042,20042,20042,20042,20042,20042,20042,20042,20042,20042,20042,20042,20042,20042,20042,20042,20042,20042,20042,20042,20042,20042,20042,20042,20042,20042,20021,0,0,0,0,0,0,0,0,0,0,0,0,0,0,0,0,0,0,0,0,0,0,0,0,0,0,0,0,20081,0,0,0,0,0,0,0,0,0,0,0,20391,
20422,20042,20042,20042,20042,20042,20042,20042,20042,20042,20042,20091,20043,20043,20043,20043,2147503739,20042,20042,20042,20042,20042,20042,20042,20042,20042,20042,20042,20042,20042,20042,20042,20042,20042,20042,20042,20042,20042,20042,20042,20042,20042,20042,20042,20042,20042,20042,20042,20042,20042,20042,20042,20042,20042,20042,20042,20042,20042,20042,0,0,0,0,0,0,0,0,0,0,0,0,0,0,0,0,0,0,0,0,0,0,0,0,0,0,0,0,20081,0,0,0,0,0,0,0,0,0,0,0,20423,
20390,20042,20042,20042,20042,20042,20042,20042,20042,20042,20042,20091,20043,20043,20043,20043,2147503739,20042,20042,20042,20042,20042,20042,20042,20042,20042,20042,20042,20042,20042,20042,20042,20042,20042,20042,20042,20042,20042,20042,20042,20042,20042,20042,20042,20042,20042,20042,20042,20042,20042,20042,20042,20042,20042,20042,20042,20042,20042,0,0,0,0,0,0,0,0,0,0,0,0,0,0,0,0,0,0,0,0,0,0,0,0,0,0,0,0,0,20081,0,0,0,0,0,0,0,0,0,0,0,20391,
20422,20042,20042,20042,20042,20042,20042,20042,20042,20042,20042,20091,20043,20043,20043,20043,2147503739,20042,20042,20042,20042,20042,20042,20042,20042,20042,20042,20042,20042,20042,20042,20042,20042,20042,20042,20042,20042,20042,20042,20042,20042,20042,20042,20042,20042,20042,20042,20042,20042,20042,20042,20042,20042,20042,20042,20042,20042,20042,20001,0,0,0,0,0,0,0,0,0,0,0,0,0,0,0,0,0,0,0,0,0,0,0,0,0,0,0,0,20081,0,0,0,0,0,0,0,0,0,0,0,20423,
20390,20042,20042,20042,20042,20042,20042,20042,20042,20042,20042,20091,20043,20043,20043,20043,2147503739,20042,20042,20042,20042,20042,20042,20042,20042,20042,20042,20042,20042,20042,20042,20042,20042,20042,20042,20042,20042,20042,20042,20042,20042,20042,20042,20042,20042,20042,20042,20042,20042,20042,20042,20042,20042,20042,20042,20042,20042,20042,20021,0,0,0,0,0,0,0,0,0,0,0,0,0,0,0,0,0,0,0,0,0,0,0,0,0,0,0,0,20081,0,0,0,0,0,0,0,0,0,0,0,20391,
20422,20042,20042,20042,20042,20066,20067,20067,20067,20067,20067,20146,0,0,20043,20043,20148,20067,20067,20067,20067,20067,20067,20067,20067,20067,20067,0,20265,20266,20267,20268,20269,20265,20266,20267,20268,20269,20265,20266,20267,20268,20269,20265,20266,20267,20268,20269,20265,20266,20267,20268,20269,20265,20266,20267,20268,20269,20265,20266,0,0,0,0,0,0,0,0,0,0,0,0,0,0,0,0,0,0,0,0,0,0,0,0,0,0,0,20081,0,0,0,0,0,0,0,0,0,0,0,20423,
20390,20042,20042,20042,20042,0,0,0,20023,20082,20082,0,0,0,20043,20043,0,0,0,0,0,20023,0,0,0,20022,0,0,20297,20298,20299,20300,20301,20297,20298,20299,20300,20301,20297,20298,20299,20300,20301,20297,20298,20299,20300,20301,20297,20298,20299,20300,20301,20297,20298,20299,20300,20301,20297,20298,0,0,0,0,0,0,0,0,0,0,0,0,0,0,0,0,0,0,0,0,0,0,0,0,0,0,0,20081,0,0,0,0,0,0,0,0,0,0,0,20391,
20422,20042,20042,20042,20042,0,0,0,0,20082,20082,0,0,0,20043,20043,0,0,0,0,0,0,0,0,0,0,20023,0,20329,20330,20331,20332,20333,20329,20330,20331,20332,20333,20329,20330,20331,20332,20333,20329,20330,20331,20332,20333,20329,20330,20331,20332,20333,20329,20330,20331,20332,20333,20329,20330,0,0,0,0,0,0,0,0,0,0,0,0,0,0,0,0,0,0,0,0,0,0,0,0,0,0,0,20081,0,0,0,0,0,0,0,0,0,0,0,20423,
20390,20646,20646,20646,20646,20646,20646,20646,20646,20646,20647,20646,20646,20646,20646,20646,20646,20646,20646,20646,20646,20646,20646,20646,20646,20646,20646,0,20646,20646,20646,20646,20646,20646,20646,20646,20646,20646,20646,20646,20646,20646,20646,20646,20646,20646,20646,20646,20646,20646,20646,20646,20646,20646,20646,20646,20646,20646,20646,20646,20646,20646,0,0,0,0,0,0,0,0,0,0,0,0,0,0,0,0,0,0,0,0,20646,20646,20646,20646,20646,20646,20646,20646,20646,20646,20646,20646,20646,20646,20646,20646,20646,20391,
20422,20646,20646,20646,20646,20646,20646,20646,20646,20646,20647,20646,20646,20646,20646,20646,20646,20646,20646,20646,20646,20646,20646,20646,20646,20646,20646,0,20646,20646,20646,20646,20646,20646,20646,20646,20646,20646,20646,20646,20646,20646,20646,20646,20646,20646,20646,20646,20646,20646,20646,20646,20646,20646,20646,20646,20646,20646,20646,20646,20646,20646,0,0,0,0,0,0,0,0,0,0,0,0,0,0,0,0,0,0,0,0,20646,20646,20646,20646,20646,20646,20646,20646,20646,20646,20646,20646,20646,20646,20646,20646,20646,20423,
20390,20646,20646,20646,20646,20646,20646,20646,20646,20646,20647,20646,20646,20646,20646,20646,20646,20646,20646,20646,20646,20646,20646,20646,20646,20646,20646,0,20646,20646,20646,20646,20646,20646,20646,20646,20646,20646,20646,20646,20646,20646,20646,20646,20646,20646,20646,20646,20646,20646,20646,20646,20646,20646,20646,20646,20646,20646,20646,20646,20646,20646,0,0,0,0,0,0,0,0,0,0,0,0,0,0,0,0,0,0,0,0,20646,20646,20646,20646,20646,20646,20646,20646,20646,20646,20646,20646,20646,20646,20646,20646,20646,20391,
20422,20646,20646,20646,20646,20646,20646,20646,20646,20646,20647,20646,20646,20646,20646,20646,20646,20646,20646,20646,20646,20646,20646,20646,20646,20646,20646,0,20646,20646,20646,20646,20646,20646,20646,20646,20646,20646,20646,20646,20646,20646,20646,20646,20646,20646,20646,20646,20646,20646,20646,20646,20646,20646,20646,20646,20646,20646,20646,20646,20646,20646,0,0,0,0,0,0,0,0,0,0,0,0,0,0,0,0,0,0,0,0,20646,20646,20646,20646,20646,20646,20646,20646,20646,20646,20646,20646,20646,20646,20646,20646,20646,20423,
20390,20042,20042,20042,20042,0,0,0,0,20082,0,0,0,0,20043,0,0,0,0,0,0,0,0,0,0,0,0,0,0,0,0,0,0,0,0,0,0,0,0,0,0,0,0,0,0,0,0,0,0,0,0,0,0,0,0,0,0,0,0,0,0,0,0,0,0,0,0,0,0,0,0,0,0,20394,0,0,0,0,0,0,0,0,0,0,0,0,0,20148,0,0,0,0,0,0,0,0,0,0,0,20391,
20422,20042,20042,20042,20042,0,0,0,0,20082,0,0,0,0,20043,0,0,0,0,0,0,0,0,0,0,20022,0,0,0,0,0,0,0,0,0,0,0,0,0,0,0,0,0,0,0,0,0,0,0,0,0,0,0,0,0,0,0,0,0,0,0,0,0,0,0,0,0,0,0,0,0,0,0,20394,0,0,0,0,0,0,0,0,0,0,0,0,0,20148,0,0,0,0,0,0,0,0,0,0,0,20423,
20390,20042,20042,20042,20042,0,0,0,0,20082,0,0,0,0,20043,0,0,0,0,0,0,0,0,0,0,0,0,0,0,0,0,0,0,0,0,0,0,0,0,0,0,0,0,0,0,0,0,0,0,0,0,0,0,0,0,0,0,0,0,0,0,0,0,0,0,0,0,0,0,0,0,0,0,0,0,0,0,0,0,0,0,0,0,0,0,0,0,20148,0,0,0,0,0,0,0,0,0,0,0,20391,
20422,20042,20042,20042,20042,0,0,0,0,20082,0,0,0,0,20043,0,0,20023,0,0,0,0,0,0,0,0,0,0,0,0,0,0,0,0,0,0,0,0,0,0,0,0,0,0,0,0,0,0,0,0,0,0,0,0,0,0,0,0,0,0,0,0,0,0,0,0,0,0,0,0,0,0,0,0,0,0,0,0,0,0,0,0,0,0,0,0,0,20148,0,0,0,0,0,0,0,0,0,0,0,20423,
20390,20042,20042,20042,20042,0,0,0,0,20082,0,0,0,0,20043,0,0,0,0,0,20001,0,0,0,0,0,20022,0,0,0,0,0,0,0,0,0,0,0,0,0,0,0,0,0,0,0,0,0,0,0,0,0,0,0,0,0,0,0,20394,20394,0,0,0,0,0,0,0,0,0,0,0,0,0,0,0,0,0,0,0,0,0,0,0,0,0,0,0,20148,0,0,0,0,0,0,0,0,0,0,0,20391,
20422,20042,20042,20042,20042,0,0,0,0,20082,0,0,0,0,20043,0,0,20708,20709,20710,20021,0,0,0,0,0,0,0,0,0,0,0,0,0,0,0,0,0,0,0,0,0,0,0,0,0,0,0,0,0,0,0,0,0,0,0,0,0,20394,20394,0,0,0,0,0,0,0,0,0,0,0,0,0,0,0,0,0,0,0,0,0,0,0,0,0,0,0,20148,0,0,0,0,0,0,0,0,0,0,0,20423,
20390,20042,20042,20042,20042,0,0,0,0,20082,0,0,0,0,20043,0,0,20728,20729,20730,0,0,0,0,0,0,0,0,0,0,0,0,0,0,0,0,0,0,0,0,0,0,0,0,0,0,0,0,0,0,0,0,0,0,0,0,0,0,0,0,0,0,0,0,0,0,0,0,0,0,0,0,0,0,0,0,0,0,0,0,0,0,0,0,0,0,0,20148,0,0,0,0,0,0,0,0,0,0,0,20391,
20422,20042,20042,20042,20042,0,0,0,0,20082,0,0,0,0,20043,0,0,20748,20749,20750,0,0,0,0,0,0,0,0,0,0,0,0,0,0,0,20561,20562,20562,20562,20562,20562,20562,20562,20562,20562,20562,20562,20562,20563,0,0,0,0,0,0,0,0,0,0,0,0,0,0,0,0,0,0,0,0,0,0,0,0,0,0,0,20613,0,0,0,0,0,0,0,0,0,0,20148,0,0,0,0,0,0,0,0,0,0,0,20423,
20390,20042,20042,20042,20042,0,0,0,0,20082,0,0,0,0,20043,0,0,0,0,0,0,0,0,0,0,0,0,0,0,0,0,0,0,0,0,20593,20594,20594,20594,20594,20594,20594,20594,20594,20594,20594,20594,20594,20595,0,0,0,0,0,0,0,0,0,0,0,0,0,0,0,0,0,0,0,0,0,0,0,0,0,0,0,20645,0,0,0,0,0,0,0,0,0,0,20148,0,0,0,0,0,0,0,0,0,0,0,20391,
20422,20042,20042,20042,20042,0,0,0,0,20082,0,0,0,0,20043,0,0,0,0,0,0,0,0,0,0,20022,0,0,0,0,0,0,0,0,0,20593,20594,20594,20594,20594,20594,20594,20594,20594,20594,20594,20594,20594,20595,0,0,0,0,0,0,0,0,0,0,0,0,0,0,0,0,0,0,0,0,0,0,0,0,0,0,0,20677,0,0,0,0,0,0,0,0,0,0,20148,0,0,0,0,0,0,0,0,0,0,0,20423,
20390,20042,20042,20042,20042,0,0,0,0,20082,0,0,0,0,20043,0,0,0,0,0,0,0,0,0,0,0,0,0,0,0,0,0,0,0,0,20593,20594,20594,20594,20594,20594,20594,20594,20594,20594,20594,20594,20594,20595,0,0,0,0,0,0,0,0,0,0,0,0,0,0,0,0,0,0,0,0,0,0,0,0,0,0,0,20613,0,0,0,0,0,0,0,0,0,0,20148,0,0,0,0,0,0,0,0,0,0,0,20391,
20422,20042,20042,20042,20042,0,0,0,0,20082,0,0,0,0,20043,0,0,0,0,0,0,0,0,0,0,0,0,0,0,0,0,0,0,0,0,20593,20594,20594,20594,20594,20594,20594,20594,20594,20594,20594,20594,20594,20595,0,0,0,0,0,0,0,0,0,0,0,0,0,0,0,0,0,0,0,0,0,0,0,0,0,0,0,20645,0,0,0,0,0,0,0,0,0,0,20148,0,0,0,0,0,0,0,0,0,0,0,20423,
20390,20042,20042,20042,20042,0,0,0,0,20082,0,0,0,0,20043,0,0,0,0,0,0,0,0,0,0,0,0,0,0,0,0,0,0,0,0,20625,20626,20626,20626,20626,20626,20626,20626,20626,20626,20626,20626,20626,20627,0,0,0,0,0,0,0,0,0,0,0,0,0,0,0,0,0,0,0,0,0,0,0,0,0,0,0,20677,0,0,0,0,0,0,0,0,0,0,20148,0,0,0,0,0,0,0,0,0,0,0,20391,
20422,20042,20042,20042,20042,0,0,0,0,20082,0,0,0,0,20043,0,0,0,0,0,0,0,0,0,0,0,0,0,0,0,0,0,0,0,0,0,0,0,0,0,0,0,0,0,0,0,0,0,0,0,0,0,0,0,0,0,0,0,0,0,0,0,0,0,0,0,0,0,0,0,0,0,0,0,0,0,20613,0,0,0,0,0,0,0,0,0,0,20148,0,0,0,0,0,0,0,0,0,0,0,20423,
20390,20042,20042,20042,20042,0,0,0,0,20082,0,0,0,0,20043,0,0,0,0,20023,0,0,0,0,0,0,20022,0,0,0,0,0,0,0,0,0,0,0,0,0,0,0,0,0,0,0,0,0,0,0,0,0,0,0,0,0,0,0,0,0,0,0,0,0,0,0,0,0,0,0,0,0,0,0,0,0,20645,0,0,0,0,0,0,0,0,0,0,20148,0,0,0,0,0,0,0,0,0,0,0,20391,
20422,20042,20042,20042,20042,0,0,0,0,20082,0,0,0,0,20043,0,0,0,0,0,0,0,0,0,0,0,0,0,0,0,0,0,0,0,0,0,0,0,0,0,0,0,0,0,0,0,0,0,0,0,0,0,0,0,0,0,0,0,0,0,0,0,0,0,0,0,0,0,0,0,0,0,0,0,0,0,20677,0,0,0,0,0,0,0,0,0,0,20148,0,0,0,0,0,0,0,0,0,0,0,20423,
20390,20042,20042,20042,20042,0,0,0,0,20082,0,0,0,0,20043,0,0,0,0,0,0,0,0,0,0,0,0,0,0,0,0,0,0,0,0,0,0,0,0,0,0,0,0,0,0,0,0,0,0,0,0,0,0,0,0,0,0,0,0,0,0,0,0,0,0,0,0,0,0,0,0,0,0,0,0,0,20613,0,20491,20491,0,0,0,0,0,0,0,20148,0,0,0,0,0,0,0,0,0,0,0,20391,
20422,20042,20042,20042,20042,0,0,0,0,20082,0,0,0,0,20043,0,0,0,0,0,0,0,0,0,0,0,0,0,0,0,0,0,0,0,0,0,0,0,0,0,0,0,0,0,0,0,0,0,0,0,0,0,0,0,0,0,0,0,0,0,0,0,0,0,0,0,0,0,0,0,0,0,0,0,0,0,20645,0,20523,20523,0,0,0,0,0,0,0,20148,0,0,0,0,0,0,0,0,0,0,0,20423,
20390,20042,20042,20042,20042,0,0,0,0,20082,0,0,0,0,20043,0,0,0,0,0,0,0,0,0,0,20022,0,0,0,0,0,0,0,0,0,0,0,0,0,0,0,0,0,0,0,0,0,0,0,0,0,0,0,0,0,0,0,0,0,0,0,0,0,0,0,0,0,0,0,0,0,0,0,0,0,0,20677,0,0,0,0,0,0,0,0,0,0,20148,0,0,0,0,0,0,0,0,0,0,0,20391,
20422,20042,20042,20042,20042,0,0,0,0,20082,0,0,0,0,20043,0,0,0,0,0,0,0,0,0,0,0,0,0,0,0,0,0,0,0,0,0,0,0,0,0,0,0,0,0,0,0,0,0,0,0,0,0,0,0,0,0,20462,0,2147504110,0,0,0,0,0,0,0,0,0,0,0,0,0,0,0,0,0,0,0,0,0,0,0,0,0,0,0,0,20148,0,0,0,0,0,0,0,0,0,0,0,20423,
20390,20042,20042,20042,20042,0,0,0,0,20082,0,0,0,0,20043,0,0,0,0,0,0,0,0,0,0,0,0,20265,20266,20267,20268,20269,20265,20266,20267,20265,20266,20267,20268,20269,20265,20266,20267,20265,20266,20267,20268,20269,20265,20266,20267,20268,20269,20265,20266,20267,20494,0,20495,20265,20266,20267,20268,20269,20265,20266,20267,20268,20265,20266,20267,20268,20269,20265,20266,20267,20268,20269,20265,20266,20267,20268,0,0,0,0,0,20148,0,0,0,0,0,0,0,0,0,0,0,20391,
20422,20042,20042,20042,20042,0,0,0,0,20082,0,0,0,0,20043,0,0,0,0,0,0,0,0,0,0,0,0,20297,20298,20299,20300,20301,20297,20298,20299,20297,20298,20299,20300,20301,20297,20298,20299,20297,20298,20299,20300,20301,20297,20298,20299,20300,20301,20297,20298,20299,20494,0,20495,20297,20298,20299,20300,20301,20297,20298,20299,20300,20297,20298,20299,20300,20301,20297,20298,20299,20300,20301,20297,20298,20299,20300,0,0,0,0,0,20148,0,0,0,0,0,0,0,0,0,0,0,20423,
20390,20042,20042,20042,20042,0,0,0,0,0,0,20146,20043,20043,20043,20043,20148,0,0,0,0,0,0,0,0,0,0,20329,20330,20331,20332,20333,20329,20330,20331,20329,20330,20331,20332,20333,20329,20330,20331,20329,20330,20331,20332,20333,20329,20330,20331,20332,20333,20329,20330,20331,20526,0,20527,20329,20330,20331,20332,20333,20329,20330,20331,20332,20329,20330,20331,20332,20333,20329,20330,20331,20332,20333,20329,20330,20331,20332,0,0,0,0,0,20148,0,0,0,0,0,0,0,0,0,0,0,20391,
20422,20042,20042,20042,20042,20042,20042,20042,20042,20042,20042,20146,20043,20043,20043,20043,20148,20042,20042,20042,20042,20042,20042,20042,20042,20042,20042,20042,20042,20042,20042,20042,20042,20042,20042,20042,20042,20042,20042,20042,20042,20042,20042,20042,20042,20042,20042,20042,20042,20042,20042,20042,20042,20042,20042,3221245623,0,0,0,1073761975,20042,20042,20042,20042,20042,20042,20042,20042,20042,20042,20042,20042,20042,20042,20042,20042,20042,20042,20042,20042,20042,20153,0,0,0,0,0,20148,0,0,0,0,0,0,0,0,0,0,0,20423,
20390,20042,20042,20042,20042,20042,20042,20042,20042,20042,0,20146,20043,20043,20043,20043,20148,20042,20042,20042,20042,20042,20042,20042,20042,20042,20042,20042,20042,20042,20042,20042,20042,20042,20042,20042,20042,20042,20042,20042,20042,20042,20042,20042,20042,20042,20042,20042,20042,20042,20042,20042,20042,20042,20042,3221245623,0,0,0,1073761975,20042,20042,20042,20042,20042,20042,20042,20042,20042,20042,20042,20042,20042,20042,20042,20042,20042,20042,20042,20042,20042,20153,0,0,0,0,0,20148,0,0,0,0,0,0,0,0,0,0,0,20391,
20422,20042,20042,20042,20042,20042,20042,20042,20042,20042,0,20146,20043,20043,20043,20043,20148,20042,20042,20042,20042,20042,20042,20042,20042,20042,20042,20042,20042,20042,20042,20042,20042,20042,20042,20042,20042,20042,20042,20042,20042,20042,20042,20042,20042,20042,20042,20042,20042,20042,20042,20042,20042,20042,20042,3221245623,0,0,0,1073761975,20042,20042,20042,20042,20042,20042,20042,20042,20042,20042,20042,20042,20042,20042,20042,20042,20042,20042,20042,20042,20042,20153,0,0,0,0,0,20148,0,0,0,0,0,0,0,0,0,0,0,20423,
20390,20042,20042,20042,20042,0,0,0,0,0,20067,20146,0,0,0,0,20149,20072,20072,20072,20072,20072,20072,20072,20072,20072,20072,20072,20072,20072,20072,20072,20072,20072,20072,20072,20072,20072,20072,20072,20072,20072,20072,20072,20072,20072,20072,20072,20072,20072,20072,20072,20072,20072,20072,20173,0,0,0,2147503821,20072,20072,20072,20072,20072,20072,20072,20072,20072,20072,20072,20072,20072,20072,20072,20072,20072,20072,20072,20072,20072,20173,0,0,0,0,0,20148,0,0,0,0,0,0,0,0,0,0,0,20391,
20422,20042,20042,20042,20042,0,0,0,0,0,20082,20083,0,0,0,0,0,0,0,0,0,0,0,0,0,0,0,0,0,0,0,0,0,0,0,0,0,0,0,0,0,0,0,0,0,0,0,0,0,0,0,0,0,0,0,0,0,0,0,0,0,0,0,0,0,0,0,0,0,0,0,0,0,0,0,0,0,0,0,0,0,0,0,0,0,0,0,20148,0,0,0,0,0,0,0,0,0,0,0,20423,
20390,20042,20042,20042,20042,0,0,0,0,0,20082,20083,0,0,0,0,0,0,0,0,0,0,0,0,0,0,0,0,0,0,0,0,0,0,0,0,0,0,0,0,0,0,0,0,0,0,0,0,0,0,0,0,0,0,0,0,0,0,0,0,0,0,0,0,0,0,0,0,0,0,0,0,0,0,0,0,0,0,0,0,0,0,0,0,0,0,0,20148,0,0,0,0,0,0,0,0,0,0,0,20391,
20422,20042,20042,20042,20042,0,0,0,0,0,20082,20083,0,0,0,0,0,0,0,0,0,0,0,0,0,0,0,0,0,0,0,0,0,0,0,0,0,0,0,0,0,0,0,0,0,0,0,0,0,0,0,0,0,0,0,0,0,0,0,0,0,0,0,0,0,0,0,0,0,0,0,0,0,0,0,0,0,0,0,0,0,0,0,0,0,0,0,20148,0,0,0,0,0,0,0,0,0,0,0,20423,
20390,20042,20042,20042,20042,0,0,0,0,0,0,20166,20062,0,0,0,20001,0,0,0,0,0,0,0,0,0,0,0,0,0,20062,20062,0,0,0,0,0,0,0,0,0,0,0,0,0,0,0,0,0,0,0,0,0,0,0,0,0,0,0,0,0,0,0,0,0,0,0,0,0,0,0,0,0,0,0,0,0,0,0,0,0,0,0,0,0,0,0,20168,0,0,0,0,0,0,0,0,0,0,0,20391,
20422,20042,20042,20042,20042,0,0,0,0,0,0,0,0,0,0,0,20021,0,0,0,0,0,0,0,0,0,0,0,0,0,20001,0,0,0,0,0,0,0,0,0,0,0,0,0,0,0,0,0,0,0,0,0,20001,0,0,0,0,0,0,0,0,20001,0,0,0,0,0,0,0,0,0,0,0,0,0,0,0,0,0,0,0,0,0,0,0,0,0,0,0,0,0,0,0,0,0,0,0,0,0,20423,
20390,20042,20042,20042,20042,0,0,0,0,0,0,0,0,0,0,0,0,0,0,0,0,0,0,0,0,0,0,0,0,0,20021,0,0,0,0,0,0,0,0,0,0,0,20023,0,0,0,0,0,0,0,0,0,20021,0,0,0,0,0,0,0,0,20021,0,0,0,0,0,0,0,0,0,0,0,0,0,0,0,0,0,0,0,0,0,0,0,0,0,0,0,0,0,0,0,0,0,0,0,0,0,20391,
20422,20042,20042,20042,20042,0,0,0,0,0,0,0,0,0,0,0,0,0,0,0,0,0,0,0,0,0,0,0,0,0,0,0,0,0,0,0,0,0,0,0,0,0,0,0,0,0,0,0,0,0,0,0,0,0,0,0,0,0,0,0,0,0,0,0,0,0,0,0,0,0,0,0,0,0,0,0,0,0,0,0,0,0,0,0,0,0,0,0,0,0,0,0,0,0,0,0,0,0,0,20423,
20390,20042,20042,20042,20042,0,0,0,0,0,0,20001,0,0,0,0,0,0,0,20001,0,0,0,0,0,0,0,0,0,0,0,0,0,0,0,0,0,20001,0,0,0,0,0,0,0,0,0,0,0,0,0,0,0,0,0,0,0,0,0,0,0,0,0,20001,0,0,0,0,0,0,0,0,0,0,0,0,0,0,0,0,0,0,0,0,0,0,0,0,0,0,0,0,0,0,0,0,0,0,0,20391,
20422,20042,20042,20042,20042,0,0,0,0,0,0,20021,0,0,0,0,0,0,0,20021,0,0,0,0,0,0,0,0,0,0,0,0,0,0,0,0,0,20021,0,0,0,0,0,0,0,20001,0,0,0,0,0,0,0,0,0,0,0,0,0,0,0,0,0,20021,0,0,0,0,0,0,0,0,0,0,0,0,0,0,0,0,0,0,0,0,0,0,0,0,0,0,0,0,0,0,0,0,0,0,0,20423,
20390,20042,20042,20042,20042,0,0,0,0,0,0,0,0,0,0,0,0,0,0,0,0,0,0,0,0,0,0,0,0,0,0,0,0,0,0,0,0,0,0,0,0,0,0,0,0,20021,0,0,0,0,0,0,0,0,0,0,0,0,0,0,0,0,0,0,0,0,0,0,0,0,0,0,0,0,0,0,0,0,0,0,0,0,0,0,0,0,0,0,0,0,0,0,0,0,0,0,0,0,0,20391,
20390,20391,20390,20391,20390,20391,20390,20391,20390,20391,20390,20391,20390,20391,20390,20391,20390,20391,20390,20391,20390,20391,20390,20391,20390,20391,20390,20391,20390,20391,20390,20391,20390,20391,20390,20391,20390,20391,20390,20391,20390,20391,20390,20391,20390,20391,20390,20391,20390,20391,20390,20391,20390,20391,20390,20391,20390,20391,20390,20391,20390,20391,20390,20391,20390,20391,20390,20391,20390,20391,20390,20391,20390,20391,20390,20391,20390,20391,20390,20391,20390,20391,20390,20391,20390,20391,20390,20391,20390,20391,20390,20391,20390,20391,20390,20391,20390,20391,20390,20423
</data>
 </layer>
 <layer id="3" name="decorations" width="100" height="100">
  <data encoding="csv">
0,0,0,0,0,0,0,0,0,0,0,0,0,0,0,0,0,0,0,0,0,0,0,0,0,0,0,0,0,0,0,0,0,0,0,0,0,0,0,0,0,0,0,0,0,0,0,0,0,0,0,0,0,0,0,0,0,0,0,0,0,0,0,0,0,0,0,0,0,0,0,0,0,0,0,0,0,0,0,0,0,0,0,0,0,0,0,0,0,0,0,0,0,0,0,0,0,0,0,0,
0,0,0,0,0,0,0,0,0,0,0,0,0,0,0,0,0,0,0,0,0,0,0,0,0,0,0,0,0,0,0,0,0,0,0,0,0,0,0,0,0,0,0,0,0,0,0,0,0,0,0,0,0,0,0,0,0,0,0,0,0,0,0,0,0,0,0,0,0,0,0,0,0,0,0,0,0,0,0,0,0,0,0,0,0,0,0,0,0,0,0,0,0,0,0,0,0,0,0,0,
0,0,0,0,0,0,0,0,0,0,0,0,0,0,0,0,0,0,0,0,0,0,0,0,0,0,0,0,0,0,0,0,0,0,0,0,0,0,0,0,0,0,0,0,0,0,0,0,0,0,0,0,0,0,0,0,0,0,0,0,0,0,0,0,0,0,0,0,0,0,0,0,0,0,0,0,0,0,0,0,0,0,0,0,0,0,0,0,0,0,0,0,0,0,0,0,0,0,0,0,
0,0,0,0,0,0,0,0,0,0,0,0,0,0,0,0,0,0,0,0,0,0,0,0,0,0,0,0,0,0,0,0,0,0,0,0,0,0,0,0,0,0,0,0,0,0,0,0,0,0,0,0,0,0,0,0,0,0,0,0,0,0,0,0,0,0,0,0,0,0,0,0,0,0,0,0,0,0,0,0,0,0,0,0,0,0,0,0,0,0,0,0,0,0,0,0,0,0,0,0,
0,0,0,0,0,0,0,0,0,0,0,0,0,0,0,0,0,0,0,0,0,0,0,0,0,0,0,0,0,0,0,0,0,0,0,0,0,0,0,0,0,0,0,0,0,0,0,0,0,0,0,0,0,0,0,0,0,0,0,0,0,0,0,0,0,0,0,0,0,0,0,0,0,0,0,0,0,0,0,0,0,0,0,0,0,0,0,0,0,0,0,0,0,0,0,0,0,0,0,0,
0,0,0,0,0,0,0,0,0,0,0,0,0,0,0,0,0,0,0,0,0,0,0,0,0,0,0,0,0,0,0,0,0,0,0,0,0,0,0,0,0,0,0,0,0,0,0,0,0,0,0,0,0,0,0,0,0,0,0,0,0,0,0,0,0,0,0,0,0,0,0,0,0,0,0,0,0,0,0,0,0,0,0,0,0,0,0,0,0,0,0,0,0,0,0,0,0,0,0,0,
0,0,0,0,0,0,0,0,0,0,0,0,0,0,0,0,0,0,0,0,0,0,0,0,0,0,0,0,0,0,0,0,0,0,0,0,0,0,0,0,0,0,0,0,0,0,0,0,0,0,0,0,0,0,0,0,0,0,0,0,0,0,0,0,0,0,0,0,0,0,0,0,0,0,0,0,0,0,0,0,0,0,0,0,0,0,0,0,0,0,0,0,0,0,0,0,0,0,0,0,
0,0,0,0,0,0,0,0,0,0,0,0,0,0,0,0,0,0,0,0,0,0,0,0,0,0,0,0,0,0,0,0,0,0,0,0,0,0,0,0,0,0,0,0,0,0,0,0,0,0,0,20001,0,0,20001,0,0,20001,0,0,20001,0,0,20001,0,0,20001,0,0,20001,0,0,20001,0,0,20001,0,0,20001,0,0,20001,0,0,20001,0,0,20001,0,0,0,0,0,0,0,0,0,0,0,0,
0,0,0,0,0,0,0,0,0,0,0,0,0,0,0,0,0,0,0,0,0,0,0,0,0,0,0,0,0,0,0,0,0,0,0,0,0,0,0,0,0,0,0,0,0,0,0,0,0,0,0,20021,0,0,20021,0,0,20021,0,0,20021,0,0,20021,0,0,20021,0,0,20021,0,0,20021,0,0,20021,0,0,20021,0,0,20021,0,0,20021,0,0,20021,0,0,0,0,0,0,0,0,0,0,0,0,
0,0,0,0,0,0,0,0,0,0,0,0,0,0,0,0,0,0,0,0,0,0,0,0,0,0,0,0,0,0,0,0,0,0,0,0,0,0,0,0,0,0,0,0,0,0,0,0,0,0,0,0,0,0,0,0,0,0,0,0,0,0,0,0,0,0,0,0,0,0,0,0,0,0,0,0,0,0,0,0,0,0,0,0,0,0,0,0,0,0,0,0,0,0,0,0,0,0,0,0,
0,0,0,0,0,0,0,0,0,0,0,0,0,0,0,0,0,0,0,0,0,0,0,0,0,0,0,0,0,0,0,0,0,0,0,0,0,0,0,0,0,0,0,0,0,0,0,0,0,0,0,0,0,0,0,0,0,0,0,0,0,0,0,0,0,0,0,0,0,0,0,0,0,0,0,0,0,0,0,0,0,0,0,0,0,0,0,0,0,0,0,0,0,0,0,0,0,0,0,0,
0,0,0,0,0,0,0,0,0,0,0,0,0,0,0,0,0,0,0,0,0,0,0,0,0,0,0,0,0,0,0,0,0,0,0,0,0,0,0,0,0,0,0,0,0,0,0,0,0,0,0,0,0,0,0,0,0,0,0,0,0,0,0,0,0,0,0,0,0,0,0,0,0,0,0,0,0,0,0,0,0,0,0,0,0,0,0,0,0,0,0,0,0,0,0,0,0,0,0,0,
0,0,0,0,0,0,0,0,0,0,0,0,0,0,0,0,0,0,0,0,0,0,0,0,0,0,0,0,0,0,0,0,0,0,0,0,0,0,0,0,0,0,0,0,0,0,0,0,0,0,0,0,0,0,0,0,0,0,0,0,0,0,0,0,0,0,0,0,0,0,0,0,0,0,0,0,0,0,0,0,0,0,0,0,0,0,0,0,0,0,0,0,0,0,0,0,0,0,0,0,
0,0,0,0,0,0,0,0,0,0,0,0,0,0,0,0,0,0,0,0,0,0,0,0,0,0,0,0,0,0,0,0,0,0,0,0,0,0,0,0,0,0,0,0,0,0,0,0,0,0,0,0,0,0,0,0,0,0,0,0,0,0,0,0,0,0,0,0,0,0,0,0,0,0,0,0,0,0,0,0,0,0,0,0,0,0,0,0,0,0,0,0,0,0,0,0,0,0,0,0,
0,0,0,0,0,0,0,0,0,0,0,0,0,0,0,0,0,0,0,0,0,0,0,0,0,0,0,0,0,0,0,0,0,0,0,0,0,0,0,0,0,0,0,0,0,0,0,0,0,0,0,0,0,0,0,0,0,0,0,0,0,0,0,0,0,0,0,0,0,0,0,0,0,0,0,0,0,0,0,0,0,0,0,0,0,0,0,0,0,0,0,0,0,0,0,0,0,0,0,0,
0,0,0,0,0,0,0,0,0,0,0,0,0,0,0,0,0,0,0,0,0,0,0,0,0,0,0,0,0,0,0,0,20329,20330,20331,20332,20329,20330,20331,20332,20329,20330,20331,20332,20333,0,0,0,0,0,0,0,0,0,0,0,0,0,0,0,0,0,0,0,0,0,0,0,0,0,0,20194,20195,0,0,0,0,0,0,0,0,0,0,0,0,0,0,0,0,0,0,0,0,0,0,0,0,0,0,0,
0,0,0,0,0,0,0,0,0,0,0,0,0,0,0,0,0,0,0,0,0,0,0,0,0,0,0,0,0,0,0,0,20402,20403,20404,20402,20403,20404,0,20402,20403,20404,0,0,0,0,0,0,0,0,0,0,0,0,0,0,0,20613,0,0,0,0,0,0,0,0,20369,0,0,0,0,0,0,0,0,0,0,0,0,0,0,0,0,0,0,0,0,0,0,0,0,0,0,0,0,0,0,0,0,0,
0,0,0,0,0,0,0,0,0,0,0,0,0,0,0,0,0,0,0,0,0,0,0,0,0,0,0,0,0,0,0,0,20434,20435,20436,20434,20435,20436,0,20434,20435,20436,0,0,0,0,0,0,0,0,0,0,0,0,0,0,0,20645,0,0,0,0,0,0,0,0,20401,0,0,0,0,0,0,0,0,0,0,0,0,0,0,0,0,0,0,0,0,0,0,0,0,0,0,0,0,0,0,0,0,0,
0,0,0,0,0,0,0,0,0,0,0,0,0,0,0,0,0,0,0,0,0,0,0,0,0,0,0,0,0,0,0,0,20370,20371,20372,20370,20371,20372,0,0,0,0,0,0,0,0,0,0,0,0,0,0,0,0,0,0,0,20677,0,0,0,0,0,0,0,0,20369,0,0,0,0,0,0,0,0,0,0,0,0,0,0,0,0,0,0,0,0,0,0,0,0,0,0,0,0,0,0,0,0,0,
0,0,0,0,0,0,0,0,0,0,0,0,0,0,0,0,0,0,0,0,0,0,0,0,0,0,0,0,0,0,0,0,0,0,0,0,0,0,0,0,0,0,0,0,0,0,0,0,0,0,0,0,0,0,0,0,0,20613,0,0,0,0,0,0,0,0,20401,0,0,0,0,0,0,0,0,0,0,0,0,0,0,0,0,0,0,0,0,0,0,0,0,0,0,0,0,0,0,0,0,0,
0,0,0,0,0,0,0,0,0,0,0,0,0,0,0,0,0,0,0,0,0,0,0,0,0,0,0,0,0,0,0,0,0,0,0,0,0,0,0,0,0,0,0,0,0,0,0,0,0,0,0,0,0,0,0,0,0,20645,0,0,0,0,0,0,0,0,20369,0,0,0,0,0,0,0,0,0,0,0,0,0,0,0,0,0,0,0,0,0,0,0,0,0,0,0,0,0,0,0,0,0,
0,0,0,0,0,0,0,0,0,0,0,0,0,0,0,0,0,0,0,0,0,0,0,0,0,0,0,0,0,0,0,0,0,0,0,0,0,0,0,0,0,0,0,0,0,0,0,0,0,0,0,0,0,0,0,0,0,20677,0,0,0,0,0,0,0,0,20401,0,0,0,0,0,0,0,0,0,0,0,0,0,0,0,0,0,0,0,0,0,0,0,0,0,0,0,0,0,0,0,0,0,
0,0,0,0,0,0,0,0,0,0,0,0,0,0,0,0,0,0,0,0,0,0,0,0,0,0,0,0,0,0,0,0,0,0,0,0,0,0,0,0,0,0,0,0,0,0,0,0,0,0,0,0,0,0,0,0,0,20613,0,0,0,0,0,0,0,0,20369,0,0,0,0,0,0,0,0,0,0,0,0,0,0,0,0,0,0,0,0,0,0,0,0,0,0,0,0,0,0,0,0,0,
0,0,0,0,0,0,0,0,0,0,0,0,0,0,0,0,0,0,0,0,0,0,0,0,0,0,0,0,0,0,0,0,0,0,0,0,0,0,0,0,0,0,0,0,0,0,0,0,0,0,0,0,0,0,0,0,0,20645,0,0,0,0,0,0,0,0,20401,0,0,0,0,0,0,0,0,0,0,0,0,0,0,0,0,0,0,0,0,0,0,0,0,0,0,0,0,0,0,0,0,0,
0,0,0,0,0,0,0,0,0,0,0,0,0,0,0,0,0,0,0,0,0,0,0,0,0,0,0,0,0,0,0,0,0,0,0,0,0,0,0,0,0,0,0,20255,20256,20257,20319,20319,20319,2147503905,2147503904,2147503903,0,0,0,0,0,20677,0,0,0,0,0,0,0,0,20369,0,0,0,0,0,0,0,0,0,0,0,0,0,0,0,0,0,0,0,0,0,0,0,0,0,0,0,0,0,0,0,0,0,
0,0,0,0,0,0,0,0,0,0,0,0,0,0,0,0,0,0,0,0,0,0,0,0,0,0,0,0,0,0,0,0,0,0,0,0,0,0,0,0,0,0,0,20287,20290,20290,20290,0,20290,20290,20290,2147503935,0,0,0,0,0,20613,0,0,0,0,0,0,0,0,20401,0,0,0,0,0,0,0,0,0,0,0,0,0,0,0,0,0,0,0,0,0,0,0,0,0,0,0,0,0,0,0,0,0,
0,0,0,0,0,0,0,0,0,0,0,0,0,0,0,0,0,0,0,0,0,0,0,0,0,0,0,0,0,0,0,0,0,0,0,0,0,0,0,0,0,0,0,0,20322,20322,20322,0,20322,20322,20322,0,0,0,0,0,0,20645,0,0,0,0,0,0,0,0,20369,0,0,0,0,0,0,0,0,0,0,0,0,0,0,0,0,0,0,0,0,0,0,0,0,0,0,0,0,0,0,0,0,0,
0,0,0,0,0,0,0,0,0,0,0,0,0,0,0,0,0,0,0,0,0,0,0,0,0,0,0,0,0,0,0,0,0,0,0,0,0,0,0,0,0,0,0,0,0,0,0,0,0,0,0,0,0,0,0,0,0,20677,0,0,0,0,0,0,0,0,20401,0,0,0,0,0,0,0,0,0,0,0,0,0,0,0,0,0,0,0,0,0,0,0,0,0,0,0,0,0,0,0,0,0,
0,0,0,0,0,0,0,0,0,0,0,0,0,0,0,0,0,0,0,0,0,0,0,0,0,0,0,0,0,0,0,0,0,0,0,0,0,0,0,0,0,0,0,0,0,0,0,0,0,0,0,0,0,0,0,0,0,20613,0,0,0,0,0,0,0,0,20369,0,0,0,0,0,0,0,0,0,0,0,0,0,0,0,0,0,0,0,0,0,0,0,0,0,0,0,0,0,0,0,0,0,
0,0,0,0,0,0,0,0,0,0,0,0,0,0,0,0,0,0,0,0,0,0,0,0,0,0,0,0,0,0,0,0,0,0,0,0,0,0,0,0,0,0,0,0,0,0,0,0,0,0,0,0,0,0,0,0,0,20645,0,0,0,0,0,0,0,0,20401,0,0,0,0,0,0,0,0,0,0,0,0,0,0,0,0,0,0,0,0,0,0,0,0,0,0,0,0,0,0,0,0,0,
0,0,0,0,0,0,0,0,0,0,0,0,0,0,0,0,0,0,0,0,0,0,0,0,0,0,0,0,0,0,0,0,0,0,0,0,0,0,0,0,0,0,0,0,0,0,0,0,0,0,0,0,0,0,0,0,0,20677,0,0,0,0,0,0,0,0,20369,0,0,0,0,0,0,0,0,0,0,0,0,0,0,0,0,0,0,0,0,0,0,0,0,0,0,0,0,0,0,0,0,0,
0,0,0,0,0,0,0,0,0,0,0,0,0,0,0,0,0,0,0,0,0,0,0,0,0,0,0,0,0,0,0,0,0,0,0,0,0,0,0,0,0,0,0,0,0,0,0,0,0,0,0,0,0,0,0,0,0,20613,0,0,0,0,0,0,0,0,20401,0,0,0,0,0,0,0,0,0,0,0,0,0,0,0,0,0,0,0,0,0,0,0,0,0,0,0,0,0,0,0,0,0,
0,0,0,0,0,0,0,0,0,0,0,0,0,0,0,0,0,0,0,0,0,0,0,0,0,0,0,0,0,0,0,0,0,0,0,0,0,0,0,0,0,0,0,0,0,0,0,0,0,0,0,0,0,0,0,0,0,20645,0,0,0,0,0,0,0,0,20369,0,0,0,0,0,0,0,0,0,0,0,0,0,0,0,0,0,0,0,0,0,0,0,0,0,0,0,0,0,0,0,0,0,
0,0,0,0,0,0,0,0,0,0,0,0,0,0,0,0,0,0,0,0,0,0,0,0,0,0,0,0,0,0,0,0,0,0,0,0,0,0,0,0,0,0,0,0,0,0,0,0,0,0,0,0,0,0,0,0,0,20677,0,0,0,0,0,0,0,0,20401,0,0,0,0,0,0,0,0,0,0,0,0,0,0,0,0,0,0,0,0,0,0,0,0,0,0,0,0,0,0,0,0,0,
0,0,0,0,0,0,0,0,0,0,0,0,0,0,0,0,0,0,0,0,0,0,0,0,0,0,0,0,0,0,0,0,0,0,0,0,0,0,0,0,0,0,0,0,0,0,0,0,0,0,0,0,0,0,0,0,0,0,0,0,0,0,0,0,0,0,0,0,0,0,0,0,0,0,0,0,0,0,0,0,0,0,0,0,0,0,0,0,0,0,0,0,0,0,0,0,0,0,0,0,
0,0,0,0,0,0,0,0,0,0,0,0,0,0,0,0,0,0,0,0,0,0,0,0,0,0,0,0,20194,20195,20194,20195,20194,20195,20194,20195,20194,20195,0,0,0,0,0,0,0,0,0,0,0,0,0,0,0,0,0,0,0,0,0,0,0,0,0,0,0,0,0,0,0,0,0,0,0,0,0,0,0,0,0,0,0,0,0,0,0,0,0,0,0,0,0,0,0,0,0,0,0,0,0,0,
0,0,0,0,0,0,0,0,0,0,0,0,0,0,0,0,0,0,0,0,0,0,0,0,0,0,0,0,20226,20227,20226,20227,20226,20227,20226,20227,20226,20227,0,0,0,0,0,0,0,0,0,0,0,0,0,0,0,0,0,0,0,0,0,0,0,0,0,0,0,0,0,0,0,0,0,0,0,0,0,0,0,0,0,0,0,0,0,0,0,0,0,0,0,0,0,0,0,0,0,0,0,0,0,0,
0,0,0,0,0,0,0,0,0,0,0,0,0,0,0,0,0,0,0,0,0,0,0,0,0,0,0,0,20258,20259,20258,20259,20258,20259,20258,20259,20258,20259,0,0,0,0,0,0,0,0,0,0,0,0,0,0,0,0,0,0,0,0,0,0,0,0,0,0,0,0,0,0,0,0,0,0,0,0,0,0,0,0,0,0,0,0,0,0,0,0,0,0,0,0,0,0,0,0,0,0,0,0,0,0,
0,0,0,0,0,0,0,0,0,0,0,0,0,0,0,0,0,0,0,0,0,0,0,0,0,0,0,0,0,0,0,0,0,0,0,0,0,0,0,0,0,0,0,0,0,0,0,0,0,0,0,0,0,0,0,0,0,0,0,0,0,0,0,0,0,0,0,0,0,0,0,0,0,0,0,0,0,0,0,0,0,0,0,0,0,0,0,0,0,0,0,0,0,0,0,0,0,0,0,0,
0,0,0,0,0,0,0,0,0,0,0,0,0,0,0,0,0,0,0,0,0,0,0,0,0,0,0,0,0,0,0,0,0,0,0,0,0,0,0,0,0,0,0,0,0,0,0,0,0,0,0,0,0,0,0,0,0,0,0,0,0,0,0,0,0,0,0,0,0,0,0,0,0,0,0,0,0,0,0,0,0,0,0,0,0,0,0,0,0,0,0,0,0,0,0,0,0,0,0,0,
0,0,0,0,0,0,0,0,0,0,0,0,0,0,0,0,0,0,0,0,0,0,0,0,0,0,0,0,0,0,0,0,0,0,0,0,0,0,0,0,0,0,0,0,0,0,0,0,0,0,0,0,0,0,0,0,0,0,0,0,0,0,0,0,0,0,0,0,0,0,0,0,0,0,0,0,0,0,0,0,0,0,0,0,0,0,0,0,0,0,0,0,0,0,0,0,0,0,0,0,
0,0,0,0,0,0,0,0,0,0,0,0,0,0,0,0,0,0,0,0,0,0,0,0,0,0,0,0,20194,20195,20194,20195,20194,20195,20194,20195,20194,20195,0,0,0,0,0,0,0,0,0,0,0,0,0,0,0,0,0,0,0,0,0,0,0,0,0,0,0,0,0,0,0,0,0,0,0,0,0,0,0,0,0,0,0,0,0,0,0,0,0,0,0,0,0,0,0,0,0,0,0,0,0,0,
0,0,0,0,0,0,0,0,0,0,0,0,0,0,0,0,0,0,0,0,0,0,0,0,0,0,0,0,20226,20227,20226,20227,20226,20227,20226,20227,20226,20227,0,0,0,0,0,0,0,0,0,0,0,0,0,0,0,0,0,0,0,0,0,0,0,0,0,0,0,0,0,0,0,0,0,0,0,0,0,0,0,0,0,0,0,0,0,0,0,0,0,0,0,0,0,0,0,0,0,0,0,0,0,0,
0,0,0,0,0,0,0,0,0,0,0,0,0,0,0,0,0,0,0,0,0,0,0,0,0,0,0,0,20258,20259,20258,20259,20258,20259,20258,20259,20258,20259,0,0,0,0,0,0,0,0,0,0,0,0,0,0,0,0,0,0,0,0,0,0,0,0,0,0,0,0,0,0,0,0,0,0,0,0,0,0,0,0,0,0,0,0,0,0,0,0,0,0,0,0,0,0,0,0,0,0,0,0,0,0,
0,0,0,0,0,0,0,0,0,0,0,0,0,0,0,0,0,0,0,0,0,0,0,0,0,0,0,0,0,0,0,0,0,0,0,0,0,0,0,0,0,0,0,0,0,0,0,0,0,0,0,0,0,0,0,0,0,0,0,0,0,0,0,0,0,0,0,0,0,0,0,0,0,0,0,0,0,0,0,0,0,0,0,0,0,0,0,0,0,0,0,0,0,0,0,0,0,0,0,0,
0,0,0,0,0,0,0,0,0,0,0,0,0,0,0,0,0,0,0,0,0,0,0,0,0,0,0,0,0,0,0,0,0,0,0,0,0,0,0,0,0,0,0,0,0,0,0,0,0,0,0,0,0,0,0,0,0,0,0,0,0,0,0,0,0,0,0,0,0,0,0,0,0,0,0,0,0,0,0,0,0,0,0,0,0,0,0,0,0,0,0,0,0,0,0,0,0,0,0,0,
0,0,0,0,0,0,0,0,0,0,0,0,0,0,0,0,0,0,0,0,0,0,0,0,0,0,0,0,0,0,0,0,0,0,0,0,0,0,0,0,0,0,0,0,0,0,0,0,0,0,0,0,0,0,0,0,0,0,0,0,0,0,0,0,0,0,0,0,0,0,0,0,0,0,0,0,0,0,0,0,0,0,0,0,0,0,0,0,0,0,0,0,0,0,0,0,0,0,0,0,
0,0,0,0,0,0,0,0,0,0,0,0,0,0,0,0,0,0,0,0,0,0,0,0,0,0,0,0,0,0,0,0,0,0,0,0,0,0,0,0,0,0,0,0,0,0,0,0,0,0,0,0,0,0,0,0,0,0,0,0,0,0,0,0,0,0,0,0,0,0,0,0,0,0,0,0,0,0,0,1610633354,0,0,0,0,0,0,0,0,0,0,0,0,0,0,0,0,0,0,0,0,
0,0,0,0,0,0,0,0,0,0,0,0,0,0,0,0,0,0,0,0,0,0,0,0,0,0,0,0,0,0,0,0,0,0,0,0,0,0,0,0,0,0,0,0,0,0,0,0,0,0,0,0,0,0,0,0,0,0,0,0,0,0,0,0,0,0,0,0,0,0,0,0,0,0,0,0,0,0,0,1610633354,0,0,0,0,0,0,0,0,0,0,0,0,0,0,0,0,0,0,0,0,
0,0,0,0,0,0,0,0,0,0,0,0,0,0,0,0,0,0,0,0,0,0,0,0,0,0,0,0,0,0,0,0,0,0,0,0,0,0,0,0,0,0,0,0,0,0,0,0,0,0,0,0,0,0,0,0,0,0,0,0,0,0,0,0,0,0,0,0,0,0,0,0,0,0,0,0,0,0,0,1610633354,0,0,0,0,0,0,0,0,0,0,0,0,0,0,0,0,0,0,0,0,
0,0,0,0,0,0,0,0,0,0,0,0,0,0,0,0,0,0,0,0,0,0,0,0,0,0,0,0,0,0,0,0,0,0,0,0,0,0,0,0,0,0,0,0,0,0,0,0,0,0,0,0,0,0,0,0,0,0,0,0,0,0,0,0,0,0,0,0,0,0,0,0,0,0,0,0,0,0,0,0,0,0,0,0,0,0,0,0,0,0,0,0,0,0,0,0,0,0,0,0,
0,0,0,0,0,0,0,0,0,0,0,0,0,0,0,0,0,0,0,0,0,0,0,0,0,0,0,0,0,0,0,0,0,0,0,0,0,0,0,0,0,0,0,0,0,0,0,0,0,0,0,0,0,0,0,0,0,0,0,0,0,0,0,0,0,0,0,0,0,0,0,0,0,0,0,0,0,0,0,0,0,0,0,0,0,0,0,0,0,0,0,0,0,0,0,0,0,0,0,0,
0,0,0,0,0,0,0,0,0,0,0,0,0,0,0,0,0,0,0,0,0,0,0,0,0,0,0,0,0,0,0,0,0,0,0,0,0,0,0,0,0,0,0,0,0,0,0,0,0,0,0,0,0,0,0,0,0,0,0,0,0,0,0,0,0,0,0,0,0,0,0,0,0,0,0,0,0,0,0,0,0,0,0,0,0,0,0,0,0,0,0,0,0,0,0,0,0,0,0,0,
0,0,0,0,0,0,0,0,0,0,0,0,0,0,0,0,0,0,0,0,0,0,0,0,0,0,0,0,0,0,0,0,0,0,0,0,0,0,0,0,0,0,0,0,0,0,0,0,0,0,0,0,0,0,0,0,0,0,0,0,0,0,0,0,0,0,0,0,0,0,0,0,0,0,0,0,0,0,0,0,0,0,0,0,0,0,0,0,0,0,0,0,0,0,0,0,0,0,0,0,
0,0,0,0,0,0,0,0,0,0,0,0,0,0,0,0,0,0,0,0,0,0,0,0,0,0,0,0,0,0,0,0,0,0,0,0,0,0,0,0,0,0,0,0,0,0,0,0,0,0,0,0,0,0,0,0,0,0,0,0,0,0,0,0,0,0,0,0,0,0,0,0,0,0,0,0,0,0,0,0,0,0,0,0,0,0,0,0,0,0,0,0,0,0,0,0,0,0,0,0,
0,0,0,0,0,0,0,0,0,0,0,0,0,0,0,0,0,0,0,0,0,0,0,0,0,0,0,0,0,0,0,0,0,0,0,0,0,0,0,0,0,0,0,0,0,0,0,0,0,0,0,0,0,0,0,0,0,0,0,0,0,0,0,0,0,0,0,0,0,0,0,0,0,0,0,0,0,0,0,0,0,0,0,0,0,0,0,0,0,0,0,0,0,0,0,0,0,0,0,0,
0,0,0,0,0,0,0,0,0,0,0,0,0,0,0,0,0,0,0,0,0,0,0,0,0,0,0,0,0,0,0,0,0,0,0,0,0,0,0,0,0,0,0,0,0,0,0,0,0,0,0,0,0,0,0,0,0,0,0,0,0,0,0,0,0,0,0,0,0,0,0,0,0,0,0,0,0,0,0,0,0,0,0,0,0,0,0,0,0,0,0,0,0,0,0,0,0,0,0,0,
0,0,0,0,0,0,0,0,0,0,0,0,0,0,0,0,0,0,0,0,0,0,0,0,0,0,0,0,0,0,0,0,0,0,0,0,0,0,0,0,0,0,0,0,0,0,0,0,0,0,0,0,0,0,0,0,0,0,0,0,0,0,0,0,0,0,0,0,0,0,0,0,0,0,0,0,0,0,0,0,0,0,0,0,0,0,0,0,0,0,0,0,0,0,0,0,0,0,0,0,
0,0,0,0,0,0,0,0,0,0,0,0,0,0,0,0,0,0,0,0,0,0,0,0,0,0,0,0,0,0,0,0,0,0,0,0,0,0,0,0,0,0,0,0,0,0,0,0,0,0,0,0,0,0,0,0,0,0,0,0,0,0,0,0,0,0,0,0,0,0,0,0,0,0,0,0,0,0,0,0,0,0,0,0,0,0,0,0,0,0,0,0,0,0,0,0,0,0,0,0,
0,0,0,0,0,0,0,0,0,0,0,0,0,0,0,0,0,0,0,0,0,0,0,0,0,0,0,0,0,0,0,0,0,0,0,0,0,0,0,0,0,0,0,0,0,0,0,0,0,0,0,0,0,0,0,0,0,0,0,0,0,0,0,0,0,0,0,0,0,0,0,0,0,0,0,0,0,0,0,0,0,0,0,0,0,0,0,0,0,0,0,0,0,0,0,0,0,0,0,0,
0,0,0,0,0,0,0,0,0,0,0,0,0,0,0,0,0,0,0,0,0,0,0,0,0,0,0,0,20613,20613,20613,20613,20613,20613,20613,20613,20613,20613,20613,20613,20613,20613,20613,20613,20613,20613,20613,20613,20613,20613,0,0,0,0,0,0,0,0,0,0,0,0,0,0,0,0,0,0,0,0,0,0,0,0,0,0,0,0,0,0,0,0,0,0,0,0,0,0,0,0,0,0,0,0,0,0,0,0,0,0,
0,0,0,0,0,0,0,0,0,0,0,0,0,0,0,0,0,0,0,0,0,0,0,0,0,0,0,0,20645,20645,20645,20645,20645,20645,20645,20645,20645,20645,20645,20645,20645,20645,20645,20645,20645,20645,20645,20645,20645,20645,0,0,0,0,0,0,0,0,0,0,0,0,0,0,0,0,0,0,0,0,0,0,0,0,0,0,0,0,0,0,0,0,0,0,0,0,0,0,0,0,0,0,0,0,0,0,0,0,0,0,
0,0,0,0,0,0,0,0,0,0,0,0,0,0,0,0,0,0,0,0,0,0,0,0,0,0,0,0,20677,20677,20677,20677,20677,20677,20677,20677,20677,20677,20677,20677,20677,20677,20677,20677,20677,20677,20677,20677,20677,20677,0,0,0,0,0,0,0,0,0,0,0,0,0,0,0,0,0,0,0,0,0,0,0,0,0,0,0,0,0,0,0,0,0,0,0,0,0,0,0,0,0,0,0,0,0,0,0,0,0,0,
0,0,0,0,0,0,0,0,0,0,0,0,0,0,0,0,0,0,0,0,0,0,0,0,0,0,0,0,0,0,0,0,0,0,0,0,0,0,0,0,0,0,0,0,0,0,0,0,0,0,0,0,0,0,0,0,0,0,0,0,0,0,0,0,0,0,0,0,0,0,0,0,0,0,0,0,0,0,0,0,0,0,0,0,0,0,0,0,0,0,0,0,0,0,0,0,0,0,0,0,
0,0,0,0,0,0,0,0,0,0,0,0,0,0,0,0,0,0,0,0,0,0,0,0,0,0,0,0,0,0,0,0,0,0,0,0,0,0,0,0,0,0,0,0,0,0,0,0,0,0,0,0,0,0,0,0,0,0,0,0,0,0,0,0,0,0,0,0,0,0,0,0,0,0,0,0,0,0,0,0,0,0,0,0,0,0,0,0,0,0,0,0,0,0,0,0,0,0,0,0,
0,0,0,0,0,0,0,0,0,0,0,0,0,0,0,0,0,0,0,0,0,0,0,0,0,0,0,0,0,0,0,0,0,0,0,0,0,0,0,0,0,0,0,0,0,0,0,0,0,0,0,0,0,0,0,0,0,0,0,0,0,0,0,0,0,0,0,0,0,0,0,0,0,0,0,0,0,0,0,0,0,0,0,0,0,0,0,0,0,0,0,0,0,0,0,0,0,0,0,0,
0,0,0,0,0,0,0,0,0,0,0,0,0,0,0,0,0,0,0,0,0,0,0,0,0,0,0,0,0,0,0,0,0,0,0,0,0,0,0,0,0,0,0,0,0,0,0,0,0,0,0,0,0,0,0,0,0,0,0,0,0,0,0,0,0,0,0,0,0,0,0,0,0,0,0,0,0,0,0,0,0,0,0,0,0,0,0,0,0,0,0,0,0,0,0,0,0,0,0,0,
0,0,0,0,0,0,0,0,0,0,0,0,0,0,0,0,0,0,0,0,0,0,0,0,0,0,0,0,0,0,0,0,0,0,0,0,0,0,0,0,0,0,0,0,0,0,0,0,0,0,0,0,0,0,0,0,0,0,0,0,0,0,0,0,0,0,0,0,0,0,0,0,0,0,0,0,0,0,0,0,0,0,0,0,0,0,0,0,0,0,0,0,0,0,0,0,0,0,0,0,
0,0,0,0,0,0,0,0,0,0,0,0,0,0,0,0,0,0,0,0,0,0,0,0,0,0,0,0,0,0,0,0,0,0,0,0,0,0,0,0,0,0,0,0,0,0,0,0,0,0,0,0,0,0,0,0,0,0,0,0,0,0,0,0,0,0,0,0,0,0,0,0,0,0,0,0,0,0,0,0,0,0,0,0,0,0,0,0,0,0,0,0,0,0,0,0,0,0,0,0,
0,0,0,0,0,0,0,0,0,0,0,0,0,0,0,0,0,0,0,0,0,0,0,0,0,0,0,0,0,0,0,0,0,0,0,0,0,0,0,0,0,0,0,0,0,0,0,0,0,0,0,0,0,0,0,0,0,0,0,0,0,0,0,0,0,0,0,0,0,0,0,0,0,0,0,0,0,0,0,0,0,0,0,0,0,0,0,0,0,0,0,0,0,0,0,0,0,0,0,0,
0,0,0,0,0,0,0,0,0,0,0,0,0,0,0,0,0,0,0,0,0,0,0,0,0,0,0,0,0,0,0,0,0,0,0,0,0,0,0,0,0,0,0,0,0,0,0,0,0,0,0,0,0,0,0,0,0,0,0,0,0,0,0,0,0,0,0,0,0,0,0,0,0,0,0,0,0,0,0,0,0,0,0,0,0,0,0,0,0,0,0,0,0,0,0,0,0,0,0,0,
0,0,0,0,0,0,0,0,0,0,0,0,0,0,0,0,0,0,0,0,0,0,0,0,0,0,0,0,0,0,0,0,0,0,0,2147503952,2147503951,2147503984,2147503983,2147504033,2147504032,2147504031,20383,20384,20385,20335,20336,20303,20304,0,0,0,0,0,0,0,0,0,0,0,0,0,0,0,0,0,0,0,0,0,0,0,0,0,0,0,0,0,0,0,0,0,0,0,0,0,0,0,0,0,0,0,0,0,0,0,0,0,0,0,
0,0,0,0,0,0,0,0,0,0,0,0,0,0,0,0,0,0,0,0,0,0,0,0,0,0,0,0,0,0,0,0,0,0,0,0,0,0,0,2147504065,20290,20290,20290,20290,20417,0,0,0,0,0,0,0,0,0,0,0,0,0,0,0,0,0,0,0,0,0,0,0,0,0,0,0,0,0,0,0,0,0,0,0,0,0,0,0,0,0,0,0,0,0,0,0,0,0,0,0,0,0,0,0,
0,0,0,0,0,0,0,0,0,0,0,0,0,0,0,0,0,0,0,0,0,0,0,0,0,0,0,0,0,0,0,0,0,0,0,0,0,0,0,0,20322,20322,20322,20322,0,0,0,0,0,0,0,0,0,0,0,0,0,0,0,0,0,0,0,0,0,0,0,0,0,0,0,0,0,0,0,0,0,0,0,0,0,0,0,0,0,0,0,0,0,0,0,0,0,0,0,0,0,0,0,0,
0,0,0,0,0,0,0,0,0,0,0,0,0,0,0,0,0,0,0,0,0,0,0,0,0,0,0,0,0,0,0,0,0,0,0,0,0,0,0,0,0,0,0,0,0,0,0,0,0,0,0,0,0,0,0,0,0,0,0,0,0,0,0,0,0,0,0,0,0,0,0,0,0,0,0,0,0,0,0,0,0,0,0,0,0,0,0,0,0,0,0,0,0,0,0,0,0,0,0,0,
0,0,0,0,0,0,0,0,0,0,0,0,0,0,0,0,0,0,0,0,0,0,0,0,0,0,0,0,0,0,0,0,0,0,0,0,0,0,0,0,0,0,0,0,0,0,0,0,0,0,0,0,0,0,0,0,0,0,0,0,0,0,0,0,0,0,0,0,0,0,0,0,0,0,0,0,0,0,0,0,0,0,0,0,0,0,0,0,0,0,0,0,0,0,0,0,0,0,0,0,
0,0,0,0,0,0,0,0,0,0,0,0,0,0,0,0,0,0,0,0,0,0,0,0,0,0,0,0,0,0,0,0,0,0,0,0,0,0,0,0,0,0,0,0,0,0,0,0,0,0,0,0,0,0,0,0,0,0,0,0,0,0,0,0,0,0,0,0,0,0,0,0,0,0,0,0,0,0,0,0,0,0,0,0,0,0,0,0,0,0,0,0,0,0,0,0,0,0,0,0,
0,0,0,0,0,0,0,0,0,0,0,0,0,0,0,0,0,0,0,0,0,0,0,0,0,0,0,0,0,0,0,0,0,0,0,0,0,0,0,0,0,0,0,0,0,0,0,0,0,0,0,0,0,0,0,0,0,0,0,0,0,0,0,0,0,0,0,0,0,0,0,0,0,0,0,0,0,0,0,0,0,0,0,0,0,0,0,0,0,0,0,0,0,0,0,0,0,0,0,0,
0,0,0,0,0,0,0,0,0,0,0,0,0,0,0,0,0,0,0,0,0,0,0,0,0,0,0,0,0,0,0,0,0,0,0,0,0,0,0,0,0,0,0,0,0,0,0,0,0,0,0,0,0,0,0,0,0,0,0,0,0,0,0,0,0,0,0,0,0,0,0,0,0,0,0,0,0,0,0,0,0,0,0,0,0,0,0,0,0,0,0,0,0,0,0,0,0,0,0,0,
0,0,0,0,0,0,0,0,0,0,0,0,0,0,0,0,0,0,0,0,0,0,0,0,0,0,0,0,0,0,0,0,0,0,0,0,0,0,0,0,0,0,0,0,0,0,0,0,0,0,0,0,0,0,0,0,0,0,0,0,0,0,0,0,0,0,0,0,0,0,0,0,0,0,0,0,0,0,0,0,0,0,0,0,0,0,0,0,0,0,0,0,0,0,0,0,0,0,0,0,
0,0,0,0,0,0,0,0,0,0,0,0,0,0,0,0,0,0,0,0,0,0,0,0,0,0,0,0,0,0,0,0,0,0,0,0,0,0,0,0,0,0,0,0,0,0,0,0,0,0,0,0,0,0,0,0,0,0,0,0,0,0,0,0,0,0,0,0,0,0,0,0,0,0,0,0,0,0,0,0,0,0,0,0,0,0,0,0,0,0,0,0,0,0,0,0,0,0,0,0,
0,0,0,0,0,0,0,0,0,0,0,0,0,0,0,0,0,0,0,0,0,0,0,0,0,0,0,0,0,0,0,0,0,0,0,0,0,0,0,0,0,0,0,0,0,0,0,0,0,0,0,0,0,0,0,0,0,0,0,0,0,0,0,0,0,0,0,0,0,0,0,0,0,0,0,0,0,0,0,0,0,0,0,0,0,0,0,0,0,0,0,0,0,0,0,0,0,0,0,0,
0,0,0,0,0,0,0,0,0,0,0,0,0,0,0,0,0,0,0,0,0,0,0,0,0,0,0,0,0,0,0,0,0,0,0,0,0,0,0,0,0,0,0,0,0,0,0,0,0,0,0,0,0,0,0,0,0,0,0,0,0,0,0,0,0,0,0,0,0,0,0,0,0,0,0,0,0,0,0,0,0,0,0,0,0,0,0,0,0,0,0,0,0,0,0,0,0,0,0,0,
0,0,0,0,0,0,0,0,0,0,0,0,0,0,0,0,0,0,0,0,0,0,0,0,0,0,0,0,0,0,0,0,0,0,0,0,0,0,0,0,0,0,0,0,0,0,0,0,0,0,0,0,0,0,0,0,0,0,0,0,0,0,0,0,0,0,0,0,0,0,0,0,0,0,0,0,0,0,0,0,0,0,0,0,0,0,0,0,0,0,0,0,0,0,0,0,0,0,0,0,
0,0,0,0,0,0,0,0,0,0,0,0,0,0,0,0,0,0,0,0,0,0,0,0,0,0,0,0,0,0,0,0,0,0,0,0,0,0,0,0,0,0,0,0,0,0,0,0,0,0,0,0,0,0,0,0,0,0,0,0,0,0,0,0,0,0,0,0,0,0,0,0,0,0,0,0,0,0,0,0,0,0,0,0,0,0,0,0,0,0,0,0,0,0,0,0,0,0,0,0,
0,0,0,0,0,0,0,0,0,0,0,0,0,0,0,0,0,0,0,0,0,0,0,0,0,0,0,0,0,0,0,0,0,0,0,0,0,0,0,0,0,0,0,0,0,0,0,0,0,0,0,0,0,0,0,0,0,0,0,0,0,0,0,0,0,0,0,0,0,0,0,0,0,0,0,0,0,0,0,0,0,0,0,0,0,0,0,0,0,0,0,0,0,0,0,0,0,0,0,0,
0,0,0,0,0,0,0,0,0,0,0,0,0,0,0,0,0,0,0,0,0,0,0,0,0,0,0,0,0,0,0,0,0,0,0,0,0,0,0,0,0,0,0,0,0,0,0,0,0,0,0,0,0,0,0,0,0,0,0,0,0,0,0,0,0,0,0,0,0,0,0,0,0,0,0,0,0,0,0,0,0,0,0,0,0,0,0,0,0,0,0,0,0,0,0,0,0,0,0,0,
0,0,0,0,0,0,0,0,0,0,0,0,0,0,0,0,0,0,0,0,0,0,0,0,0,0,0,0,0,0,0,0,0,0,0,0,0,0,0,0,0,0,0,0,0,0,0,0,0,0,0,0,0,0,0,0,0,0,0,0,0,0,0,0,0,0,0,0,0,0,0,0,0,0,0,0,0,0,0,0,0,0,0,0,0,0,0,0,0,0,0,0,0,0,0,0,0,0,0,0,
0,0,0,0,0,0,0,0,0,0,0,0,0,0,0,0,0,0,0,0,0,0,0,0,0,0,0,0,0,0,0,0,0,0,0,0,0,0,0,0,0,0,0,0,0,0,0,0,0,0,0,0,0,0,0,0,0,0,0,0,0,0,0,0,0,0,0,0,0,0,0,0,0,0,0,0,0,0,0,0,0,0,0,0,0,0,0,0,0,0,0,0,0,0,0,0,0,0,0,0,
0,0,0,0,0,0,0,0,0,0,0,0,0,0,0,0,0,0,0,0,0,0,0,0,0,0,0,0,0,0,0,0,0,0,0,0,0,0,0,0,0,0,0,0,0,0,0,0,0,0,0,0,0,0,0,0,0,0,0,0,0,0,0,0,0,0,0,0,0,0,0,0,0,0,0,0,0,0,0,0,0,0,0,0,0,0,0,0,0,0,0,0,0,0,0,0,0,0,0,0,
0,0,0,0,0,0,0,0,0,0,0,0,0,0,0,0,0,0,0,0,0,0,0,0,0,0,0,0,0,0,0,0,0,0,0,0,0,0,0,0,0,0,0,0,0,0,0,0,0,0,0,0,0,0,0,0,0,0,0,0,0,0,0,0,0,0,0,0,0,0,0,0,0,0,0,0,0,0,0,0,0,0,0,0,0,0,0,0,0,0,0,0,0,0,0,0,0,0,0,0,
0,0,0,0,0,0,0,0,0,0,0,0,0,0,0,0,0,0,0,0,0,0,0,0,0,0,0,0,0,0,0,0,0,0,0,0,0,0,0,0,0,0,0,0,0,0,0,0,0,0,0,0,0,0,0,0,0,0,0,0,0,0,0,0,0,0,0,0,0,0,0,0,0,0,0,0,0,0,0,0,0,0,0,0,0,0,0,0,0,0,0,0,0,0,0,0,0,0,0,0,
0,0,0,0,0,0,0,0,0,0,0,0,0,0,0,0,0,0,0,0,0,0,0,0,0,0,0,0,0,0,0,0,0,0,0,0,0,0,0,0,0,0,0,0,0,0,0,0,0,0,0,0,0,0,0,0,0,0,0,0,0,0,0,0,0,0,0,0,0,0,0,0,0,0,0,0,0,0,0,0,0,0,0,0,0,0,0,0,0,0,0,0,0,0,0,0,0,0,0,0,
0,0,0,0,0,0,0,0,0,0,0,0,0,0,0,0,0,0,0,0,0,0,0,0,0,0,0,0,0,0,0,0,0,0,0,0,0,0,0,0,0,0,0,0,0,0,0,0,0,0,0,0,0,0,0,0,0,0,0,0,0,0,0,0,0,0,0,0,0,0,0,0,0,0,0,0,0,0,0,0,0,0,0,0,0,0,0,0,0,0,0,0,0,0,0,0,0,0,0,0,
0,0,0,0,0,0,0,0,0,0,0,0,0,0,0,0,0,0,0,0,0,0,0,0,0,0,0,0,0,0,0,0,0,0,0,0,0,0,0,0,0,0,0,0,0,0,0,0,0,0,0,0,0,0,0,0,0,0,0,0,0,0,0,0,0,0,0,0,0,0,0,0,0,0,0,0,0,0,0,0,0,0,0,0,0,0,0,0,0,0,0,0,0,0,0,0,0,0,0,0,
0,0,0,0,0,0,0,0,0,0,0,0,0,0,0,0,0,0,0,0,0,0,0,0,0,0,0,0,0,0,0,0,0,0,0,0,0,0,0,0,0,0,0,0,0,0,0,0,0,0,0,0,0,0,0,0,0,0,0,0,0,0,0,0,0,0,0,0,0,0,0,0,0,0,0,0,0,0,0,0,0,0,0,0,0,0,0,0,0,0,0,0,0,0,0,0,0,0,0,0,
0,0,0,0,0,0,0,0,0,0,0,0,0,0,0,0,0,0,0,0,0,0,0,0,0,0,0,0,0,0,0,0,0,0,0,0,0,0,0,0,0,0,0,0,0,0,0,0,0,0,0,0,0,0,0,0,0,0,0,0,0,0,0,0,0,0,0,0,0,0,0,0,0,0,0,0,0,0,0,0,0,0,0,0,0,0,0,0,0,0,0,0,0,0,0,0,0,0,0,0,
0,0,0,0,0,0,0,0,0,0,0,0,0,0,0,0,0,0,0,0,0,0,0,0,0,0,0,0,0,0,0,0,0,0,0,0,0,0,0,0,0,0,0,0,0,0,0,0,0,0,0,0,0,0,0,0,0,0,0,0,0,0,0,0,0,0,0,0,0,0,0,0,0,0,0,0,0,0,0,0,0,0,0,0,0,0,0,0,0,0,0,0,0,0,0,0,0,0,0,0,
0,0,0,0,0,0,0,0,0,0,0,0,0,0,0,0,0,0,0,0,0,0,0,0,0,0,0,0,0,0,0,0,0,0,0,0,0,0,0,0,0,0,0,0,0,0,0,0,0,0,0,0,0,0,0,0,0,0,0,0,0,0,0,0,0,0,0,0,0,0,0,0,0,0,0,0,0,0,0,0,0,0,0,0,0,0,0,0,0,0,0,0,0,0,0,0,0,0,0,0,
0,0,0,0,0,0,0,0,0,0,0,0,0,0,0,0,0,0,0,0,0,0,0,0,0,0,0,0,0,0,0,0,0,0,0,0,0,0,0,0,0,0,0,0,0,0,0,0,0,0,0,0,0,0,0,0,0,0,0,0,0,0,0,0,0,0,0,0,0,0,0,0,0,0,0,0,0,0,0,0,0,0,0,0,0,0,0,0,0,0,0,0,0,0,0,0,0,0,0,0
</data>
 </layer>
 <objectgroup id="4" name="objects" class="collision">
  <object id="1" type="collision" x="2" y="0" width="30" height="3198"/>
  <object id="2" type="collision" x="37.3333" y="-2.66667" width="3162.67" height="98.6667"/>
  <object id="3" type="collision" x="3170.67" y="98.6667" width="36" height="3093.33"/>
  <object id="4" type="collision" x="0" y="3164" width="3204" height="36"/>
  <object id="6" type="collision" x="64" y="1984" width="96" height="1216"/>
  <object id="7" type="collision" x="32" y="1600" width="124" height="255"/>
  <object id="8" type="collision" x="160" y="1600" width="192" height="160"/>
  <object id="9" type="collision" x="160" y="1408" width="160" height="192"/>
  <object id="10" type="collision" x="165" y="96" width="155" height="1152"/>
  <object id="11" type="collision" x="320" y="96" width="1120" height="128"/>
  <object id="12" type="collision" x="1600" y="96" width="1568" height="128"/>
  <object id="13" type="collision" x="544" y="2720" width="1216" height="96"/>
  <object id="14" type="collision" x="1920" y="2720" width="672" height="96"/>
  <object id="15" type="collision" x="1876" y="2591.33" width="748" height="117.333"/>
  <object id="16" type="collision" x="2593.33" y="421.333" width="33.3333" height="2168"/>
  <object id="17" type="collision" x="874.667" y="416" width="1749.33" height="86.6667"/>
  <object id="18" type="collision" x="862.1" y="416.667" width="34.4652" height="1084.83"/>
  <object id="19" type="collision" x="896.667" y="498" width="28.6667" height="590"/>
  <object id="20" type="collision" x="1086" y="780.667" width="70" height="17.3333"/>
  <object id="21" type="collision" x="1022.67" y="500.667" width="190.667" height="86"/>
  <object id="22" type="collision" x="1220" y="501" width="22" height="586"/>
  <object id="23" type="collision" x="1250" y="499" width="94" height="80"/>
  <object id="24" type="collision" x="1824" y="504" width="28" height="580"/>
  <object id="25" type="collision" x="1408" y="768" width="220.5" height="23.5"/>
  <object id="26" type="collision" x="1376" y="768" width="32" height="64"/>
  <object id="27" type="collision" x="1632" y="768" width="32" height="64"/>
  <object id="28" type="collision" x="1408" y="832" width="96" height="32"/>
  <object id="29" type="collision" x="1536" y="832" width="96" height="32"/>
  <object id="30" type="collision" x="1696" y="501.667" width="94.3333" height="75.3333"/>
  <object id="31" type="collision" x="1856" y="512" width="192" height="64"/>
  <object id="32" type="collision" x="2272.5" y="1276.5" width="64" height="64"/>
  <object id="33" type="collision" x="2280" y="1371" width="64" height="64"/>
  <object id="34" type="collision" x="2272.5" y="1180.5" width="64" height="64"/>
  <object id="35" type="collision" x="2271" y="1085" width="64" height="64"/>
  <object id="36" type="collision" x="2272" y="990" width="64" height="64"/>
  <object id="37" type="collision" x="2272.5" y="893.5" width="64" height="64"/>
  <object id="38" type="collision" x="2272" y="798.5" width="64" height="64"/>
  <object id="39" type="collision" x="2273" y="703" width="64" height="64"/>
  <object id="40" type="collision" x="2273" y="606.5" width="64" height="64"/>
  <object id="41" type="collision" x="2272" y="510" width="64" height="64"/>
  <object id="42" type="collision" x="899" y="1340" width="320" height="64"/>
  <object id="43" type="collision" x="894" y="1150" width="320" height="64"/>
  <object id="44" type="collision" x="864" y="1376" width="32" height="224"/>
  <object id="45" type="collision" x="896" y="1472" width="1152" height="128"/>
  <object id="46" type="collision" x="1888" y="1600" width="32" height="256"/>
  <object id="47" type="collision" x="864" y="1760" width="1024" height="96"/>
  <object id="48" type="collision" x="864" y="1856" width="32" height="864"/>
  <object id="49" type="collision" x="896" y="2592" width="892" height="117"/>
  <object id="50" type="collision" x="544" y="1600" width="1312" height="160"/>
  <object id="52" type="collision" x="896" y="1984" width="704" height="32"/>
  <object id="54" type="collision" x="2432" y="2272" width="32" height="320"/>
  <object id="55" type="collision" x="1279.5" y="2271" width="131" height="32.5"/>
  <object id="56" type="collision" x="1248" y="2269" width="29" height="67"/>
  <object id="57" type="collision" x="1408" y="2272" width="32" height="64"/>
  <object id="58" type="collision" x="1280" y="2336" width="128" height="32"/>
  <object id="59" type="collision" x="1152" y="2272" width="64" height="32"/>
  <object id="60" type="collision" x="1476" y="2277" width="60" height="27"/>
  <object id="61" type="collision" x="896" y="2016" width="96" height="576"/>
  <object id="62" type="collision" x="32" y="1856" width="128" height="128"/>
  <object id="63" type="collision" x="264" y="1802.67" width="17.3333" height="14"/>
  <object id="64" type="collision" x="32" y="1568" width="32" height="32"/>
  <object id="65" type="collision" x="64" y="1440" width="32" height="32"/>
  <object id="66" type="collision" x="32" y="1376" width="96" height="32"/>
  <object id="67" type="collision" x="32" y="1248" width="96" height="32"/>
  <object id="68" type="collision" x="32" y="1120" width="32" height="32"/>
  <object id="69" type="collision" x="640" y="1536" width="32" height="32"/>
  <object id="70" type="collision" x="768" y="1504" width="32" height="32"/>
  <object id="71" type="collision" x="672" y="1184" width="32" height="32"/>
  <object id="72" type="collision" x="800" y="1216" width="32" height="32"/>
  <object id="73" type="collision" x="736" y="1056" width="32" height="32"/>
  <object id="74" type="collision" x="416" y="992" width="32" height="32"/>
  <object id="75" type="collision" x="768" y="832" width="32" height="32"/>
  <object id="76" type="collision" x="672" y="704" width="32" height="32"/>
  <object id="77" type="collision" x="768" y="544" width="32" height="32"/>
  <object id="78" type="collision" x="640" y="544" width="32" height="32"/>
  <object id="79" type="collision" x="672" y="576" width="32" height="32"/>
  <object id="80" type="collision" x="640" y="480" width="32" height="32"/>
  <object id="81" type="collision" x="416" y="544" width="32" height="32"/>
  <object id="82" type="collision" x="352" y="448" width="32" height="32"/>
  <object id="83" type="collision" x="352" y="352" width="32" height="32"/>
  <object id="84" type="collision" x="352" y="736" width="32" height="32"/>
  <object id="85" type="collision" x="416" y="256" width="32" height="32"/>
  <object id="86" type="collision" x="512" y="256" width="32" height="32"/>
  <object id="87" type="collision" x="608" y="256" width="32" height="32"/>
  <object id="88" type="collision" x="704" y="256" width="32" height="32"/>
  <object id="89" type="collision" x="800" y="256" width="32" height="32"/>
  <object id="90" type="collision" x="896" y="256" width="32" height="32"/>
  <object id="91" type="collision" x="1115" y="653" width="32" height="32"/>
  <object id="92" type="collision" x="992" y="256" width="32" height="32"/>
  <object id="93" type="collision" x="1088" y="256" width="32" height="32"/>
  <object id="94" type="collision" x="1184" y="256" width="32" height="32"/>
  <object id="95" type="collision" x="1280" y="256" width="32" height="32"/>
  <object id="96" type="collision" x="1376" y="256" width="32" height="32"/>
  <object id="97" type="collision" x="1632" y="256" width="32" height="32"/>
  <object id="98" type="collision" x="1728" y="256" width="32" height="32"/>
  <object id="99" type="collision" x="1824" y="256" width="32" height="32"/>
  <object id="100" type="collision" x="2055" y="861" width="32" height="32"/>
  <object id="101" type="collision" x="1920" y="256" width="32" height="32"/>
  <object id="102" type="collision" x="2016" y="256" width="32" height="32"/>
  <object id="103" type="collision" x="2112" y="256" width="32" height="32"/>
  <object id="104" type="collision" x="2387" y="828" width="32" height="32"/>
  <object id="105" type="collision" x="2208" y="256" width="32" height="32"/>
  <object id="106" type="collision" x="2304" y="256" width="32" height="32"/>
  <object id="107" type="collision" x="2400" y="256" width="32" height="32"/>
  <object id="108" type="collision" x="2496" y="256" width="32" height="32"/>
  <object id="109" type="collision" x="2592" y="256" width="32" height="32"/>
  <object id="110" type="collision" x="2688" y="256" width="32" height="32"/>
  <object id="111" type="collision" x="2784" y="256" width="32" height="32"/>
  <object id="112" type="collision" x="2400" y="512" width="192" height="64"/>
  <object id="113" type="collision" x="1920" y="768" width="64" height="32"/>
  <object id="114" type="collision" x="2112" y="512" width="32" height="576"/>
  <object id="115" type="collision" x="2144" y="1504" width="384" height="96"/>
  <object id="116" type="collision" x="2368" y="416" width="32" height="1088"/>
  <object id="117" type="collision" x="2112" y="1504" width="32" height="96"/>
  <object id="118" type="collision" x="672" y="1792" width="32" height="32"/>
  <object id="119" type="collision" x="800" y="1792" width="32" height="32"/>
  <object id="120" type="collision" x="832" y="1824" width="32" height="32"/>
  <object id="121" type="collision" x="800" y="2016" width="32" height="32"/>
  <object id="122" type="collision" x="544" y="2080" width="32" height="32"/>
  <object id="123" type="collision" x="832" y="2112" width="32" height="32"/>
  <object id="124" type="collision" x="640" y="2144" width="32" height="32"/>
  <object id="125" type="collision" x="800" y="2272" width="32" height="32"/>
  <object id="126" type="collision" x="608" y="2432" width="32" height="32"/>
  <object id="127" type="collision" x="832" y="2432" width="32" height="32"/>
  <object id="128" type="collision" x="800" y="2560" width="32" height="32"/>
  <object id="129" type="collision" x="352" y="3104" width="32" height="32"/>
  <object id="130" type="collision" x="512" y="2976" width="32" height="32"/>
  <object id="131" type="collision" x="608" y="3104" width="32" height="32"/>
  <object id="132" type="collision" x="960" y="3008" width="32" height="32"/>
  <object id="133" type="collision" x="1184" y="3104" width="32" height="32"/>
  <object id="134" type="collision" x="1344" y="3008" width="32" height="32"/>
  <object id="135" type="collision" x="1440" y="3136" width="32" height="32"/>
  <object id="136" type="collision" x="1664" y="3008" width="32" height="32"/>
  <object id="137" type="collision" x="1952" y="3008" width="32" height="32"/>
  <object id="138" type="collision" x="2016" y="3104" width="32" height="32"/>
  <object id="139" type="collision" x="2912" y="1216" width="32" height="32"/>
  <object id="140" type="collision" x="2848" y="800" width="32" height="32"/>
  <object id="141" type="collision" x="3104" y="480" width="32" height="32"/>
  <object id="142" type="collision" x="160" y="2720" width="192" height="96"/>
  <object id="144" name="1" type="enemy" x="808" y="384">
   <point/>
  </object>
  <object id="145" name="1" type="enemy" x="560" y="690">
   <point/>
  </object>
  <object id="146" name="1" type="enemy" x="152" y="1322">
   <point/>
  </object>
  <object id="147" name="1" type="enemy" x="736" y="1324">
   <point/>
  </object>
  <object id="149" name="1" type="enemy" x="370" y="1814">
   <point/>
  </object>
  <object id="150" name="1" type="enemy" x="538" y="1812">
   <point/>
  </object>
  <object id="151" name="1" type="enemy" x="724" y="2308">
   <point/>
  </object>
  <object id="152" name="1" type="enemy" x="258" y="2958">
   <point/>
  </object>
  <object id="153" name="1" type="enemy" x="1764" y="2860">
   <point/>
  </object>
  <object id="154" name="1" type="enemy" x="1916" y="2854">
   <point/>
  </object>
  <object id="155" name="1" type="enemy" x="2714" y="2780">
   <point/>
  </object>
  <object id="156" name="1" type="enemy" x="2710" y="1600">
   <point/>
  </object>
  <object id="157" name="1" type="enemy" x="2704" y="556">
   <point/>
  </object>
  <object id="158" name="1" type="enemy" x="1180" y="2325">
   <point/>
  </object>
  <object id="159" name="1" type="enemy" x="1511" y="2324">
   <point/>
  </object>
  <object id="160" name="1" type="enemy" x="1279" y="2394">
   <point/>
  </object>
  <object id="161" name="1" type="enemy" x="1405" y="2389">
   <point/>
  </object>
  <object id="162" name="1" type="enemy" x="1716" y="1932">
   <point/>
  </object>
  <object id="163" name="1" type="enemy" x="2526" y="2436">
   <point/>
  </object>
  <object id="164" name="1" type="enemy" x="2002" y="1422">
   <point/>
  </object>
  <object id="165" name="1" type="enemy" x="2162" y="1390">
   <point/>
  </object>
  <object id="166" name="1" type="enemy" x="2462" y="890">
   <point/>
  </object>
  <object id="168" name="1" type="enemy" x="2480" y="1362">
   <point/>
  </object>
  <object id="169" name="1" type="enemy" x="1348" y="678">
   <point/>
  </object>
  <object id="170" name="1" type="enemy" x="1664" y="650">
   <point/>
  </object>
  <object id="171" name="1" type="enemy" x="1418" y="950">
   <point/>
  </object>
  <object id="172" name="1" type="enemy" x="1642" y="932">
   <point/>
  </object>
  <object id="173" name="1" type="enemy" x="1530" y="936">
   <point/>
  </object>
  <object id="174" name="1" type="enemy" x="1498" y="636">
   <point/>
  </object>
  <object id="176" name="1" type="enemy" x="1984" y="1038">
   <point/>
  </object>
  <object id="177" name="1" type="enemy" x="1082" y="1042">
   <point/>
  </object>
  <object id="178" name="1" type="enemy" x="1056" y="676">
   <point/>
  </object>
  <object id="179" name="1" type="enemy" x="1968" y="660">
   <point/>
  </object>
  <object id="180" name="1" type="enemy" x="2558" y="1558">
   <point/>
  </object>
  <object id="181" type="collision" x="544" y="2144" width="96" height="96"/>
  <object id="182" type="collision" x="544" y="1408" width="90.6667" height="84"/>
  <object id="183" name="1" type="enemy" x="933.333" y="2927.27">
   <point/>
  </object>
  <object id="187" name="intro_beta" type="portal" x="1440" y="32" width="160" height="96">
   <properties>
    <property name="access" value="true"/>
   </properties>
  </object>
  <object id="188" name="_intro_beta" type="spawn" x="1518.5" y="176">
   <point/>
  </object>
  <object id="190" name="ammo" type="ammo" x="1408" y="320" width="32" height="32">
   <properties>
    <property name="count" value="110"/>
   </properties>
  </object>
  <object id="191" name="ammo" type="ammo" x="970" y="1264" width="32" height="32">
   <properties>
    <property name="count" value="32"/>
   </properties>
  </object>
  <object id="192" name="ammo" type="ammo" x="2464" y="630.667" width="32" height="32">
   <properties>
    <property name="count" value="32"/>
   </properties>
  </object>
  <object id="193" name="ammo" type="ammo" x="2513.33" y="2480.67" width="32" height="32">
   <properties>
    <property name="count" value="32"/>
   </properties>
  </object>
  <object id="194" name="ammo" type="ammo" x="1806.67" y="2728" width="32" height="32">
   <properties>
    <property name="count" value="32"/>
   </properties>
  </object>
  <object id="195" name="health" type="health" x="229" y="2219" width="32" height="32">
   <properties>
    <property name="amount" value="25"/>
   </properties>
  </object>
  <object id="196" name="health" type="health" x="1766" y="3059" width="32" height="32">
   <properties>
    <property name="amount" value="25"/>
   </properties>
  </object>
  <object id="197" name="health" type="health" x="2894" y="1592" width="32" height="32">
   <properties>
    <property name="amount" value="25"/>
   </properties>
  </object>
  <object id="198" name="health" type="health" x="1940" y="1632" width="32" height="32">
   <properties>
    <property name="amount" value="25"/>
   </properties>
  </object>
  <object id="199" name="health" type="health" x="1050" y="1258" width="32" height="32">
   <properties>
    <property name="amount" value="25"/>
   </properties>
  </object>
  <object id="200" name="health" type="health" x="2192" y="606" width="32" height="32">
   <properties>
    <property name="amount" value="25"/>
   </properties>
  </object>
  <object id="201" name="player" x="1506.5" y="175.25">
   <point/>
  </object>
 </objectgroup>
</map>
